mahilab/FES_Exo/data/Eating_task_example_.csv
Time (s),Elbow F/E Pos,Forearm P/S Pos,Wrist F/E Pos,Wrist R/U Pos,Last DoF Pos,Elbow F/E Pos (Deg),Forearm P/S Pos (Deg),Wrist F/E Pos (Deg),Wrist R/U Pos (Deg),Last DoF Pos (Deg),Robot Joint 1 Pos,Robot Joint 2 Pos,Robot Joint 3 Pos,Robot Joint 4 Pos,Robot Joint 5 Pos,Elbow F/E Vel,Forearm P/S Vel,Wrist F/E Vel,Wrist R/U Pos,Last DoF Pos,Robot Joint 1 Vel,Robot Joint 2 Vel,Robot Joint 3 Vel,Robot Joint 4 Vel,Robot Joint 5 Vel
2.00036,-0.371101,-0.57491,0.125719,-0.0663713,0.0887635,-21.26252107,-32.9399166,7.203168105,-3.802795371,5.085773925,-0.371101,-0.57491,0.106243,0.0967172,0.105616,0,0,0,0,0,0,0,0,0,0
2.00136,-0.371101,-0.57491,0.125719,-0.0663713,0.0887635,-21.26252107,-32.9399166,7.203168105,-3.802795371,5.085773925,-0.371101,-0.57491,0.106243,0.0967172,0.105616,0,0,0,0,0,0,0,0,0,0
2.00236,-0.371101,-0.57491,0.125719,-0.0663713,0.0887635,-21.26252107,-32.9399166,7.203168105,-3.802795371,5.085773925,-0.371101,-0.57491,0.106243,0.0967172,0.105616,0,0,0,0,0,0,0,0,0,0
2.00337,-0.371101,-0.57491,0.125719,-0.0663713,0.0887635,-21.26252107,-32.9399166,7.203168105,-3.802795371,5.085773925,-0.371101,-0.57491,0.106243,0.0967172,0.105616,0,0,0,0,0,0,0,0,0,0
2.00436,-0.371101,-0.57491,0.125719,-0.0663713,0.0887635,-21.26252107,-32.9399166,7.203168105,-3.802795371,5.085773925,-0.371101,-0.57491,0.106243,0.0967172,0.105616,0,0,0,0,0,0,0,0,0,0
2.00536,-0.371101,-0.57491,0.125719,-0.0663713,0.0887635,-21.26252107,-32.9399166,7.203168105,-3.802795371,5.085773925,-0.371101,-0.57491,0.106243,0.0967172,0.105616,0,0,0,0,0,0,0,0,0,0
2.00636,-0.371101,-0.57491,0.125719,-0.0663713,0.0887635,-21.26252107,-32.9399166,7.203168105,-3.802795371,5.085773925,-0.371101,-0.57491,0.106243,0.0967172,0.105616,0,0,0,0,0,0,0,0,0,0
2.00739,-0.371101,-0.57491,0.125719,-0.0663713,0.0887635,-21.26252107,-32.9399166,7.203168105,-3.802795371,5.085773925,-0.371101,-0.57491,0.106243,0.0967172,0.105616,0,0,0,0,0,0,0,0,0,0
2.00837,-0.371101,-0.57491,0.125719,-0.0663713,0.0887635,-21.26252107,-32.9399166,7.203168105,-3.802795371,5.085773925,-0.371101,-0.57491,0.106243,0.0967172,0.105616,0,0,0,0,0,0,0,0,0,0
2.00937,-0.371101,-0.57491,0.125719,-0.0663713,0.0887635,-21.26252107,-32.9399166,7.203168105,-3.802795371,5.085773925,-0.371101,-0.57491,0.106243,0.0967172,0.105616,0,0,0,0,0,0,0,0,0,0
2.01037,-0.371101,-0.57491,0.125719,-0.0663713,0.0887635,-21.26252107,-32.9399166,7.203168105,-3.802795371,5.085773925,-0.371101,-0.57491,0.106243,0.0967172,0.105616,0,0,0,0,0,0,0,0,0,0
2.01139,-0.371101,-0.57491,0.125719,-0.0663713,0.0887635,-21.26252107,-32.9399166,7.203168105,-3.802795371,5.085773925,-0.371101,-0.57491,0.106243,0.0967172,0.105616,0,0,0,0,0,0,0,0,0,0
2.01239,-0.371101,-0.57491,0.125719,-0.0663713,0.0887635,-21.26252107,-32.9399166,7.203168105,-3.802795371,5.085773925,-0.371101,-0.57491,0.106243,0.0967172,0.105616,0,0,0,0,0,0,0,0,0,0
2.01338,-0.371101,-0.57491,0.125719,-0.0663713,0.0887635,-21.26252107,-32.9399166,7.203168105,-3.802795371,5.085773925,-0.371101,-0.57491,0.106243,0.0967172,0.105616,0,0,0,0,0,0,0,0,0,0
2.01439,-0.371101,-0.57491,0.125719,-0.0663713,0.0887635,-21.26252107,-32.9399166,7.203168105,-3.802795371,5.085773925,-0.371101,-0.57491,0.106243,0.0967172,0.105616,0,0,0,0,0,0,0,0,0,0
2.01538,-0.371101,-0.57491,0.125719,-0.0663713,0.0887635,-21.26252107,-32.9399166,7.203168105,-3.802795371,5.085773925,-0.371101,-0.57491,0.106243,0.0967172,0.105616,0,0,0,0,0,0,0,0,0,0
2.01638,-0.371101,-0.57491,0.125719,-0.0663713,0.0887635,-21.26252107,-32.9399166,7.203168105,-3.802795371,5.085773925,-0.371101,-0.57491,0.106243,0.0967172,0.105616,0,0,0,0,0,0,0,0,0,0
2.01739,-0.371101,-0.57491,0.125719,-0.0663713,0.0887635,-21.26252107,-32.9399166,7.203168105,-3.802795371,5.085773925,-0.371101,-0.57491,0.106243,0.0967172,0.105616,0,0,0,0,0,0,0,0,0,0
2.01838,-0.371101,-0.57491,0.125719,-0.0663713,0.0887635,-21.26252107,-32.9399166,7.203168105,-3.802795371,5.085773925,-0.371101,-0.57491,0.106243,0.0967172,0.105616,0,0,0,0,0,0,0,0,0,0
2.01938,-0.371101,-0.57491,0.125719,-0.0663713,0.0887635,-21.26252107,-32.9399166,7.203168105,-3.802795371,5.085773925,-0.371101,-0.57491,0.106243,0.0967172,0.105616,0,0,0,0,0,0,0,0,0,0
2.02038,-0.371101,-0.57491,0.125719,-0.0663713,0.0887635,-21.26252107,-32.9399166,7.203168105,-3.802795371,5.085773925,-0.371101,-0.57491,0.106243,0.0967172,0.105616,0,0,0,0,0,0,0,0,0,0
2.02138,-0.371101,-0.57491,0.125719,-0.0663713,0.0887635,-21.26252107,-32.9399166,7.203168105,-3.802795371,5.085773925,-0.371101,-0.57491,0.106243,0.0967172,0.105616,0,0,0,0,0,0,0,0,0,0
2.02239,-0.371101,-0.57491,0.125719,-0.0663713,0.0887635,-21.26252107,-32.9399166,7.203168105,-3.802795371,5.085773925,-0.371101,-0.57491,0.106243,0.0967172,0.105616,0,0,0,0,0,0,0,0,0,0
2.02339,-0.371101,-0.57491,0.125719,-0.0663713,0.0887635,-21.26252107,-32.9399166,7.203168105,-3.802795371,5.085773925,-0.371101,-0.57491,0.106243,0.0967172,0.105616,0,0,0,0,0,0,0,0,0,0
2.02439,-0.371101,-0.57491,0.125719,-0.0663713,0.0887635,-21.26252107,-32.9399166,7.203168105,-3.802795371,5.085773925,-0.371101,-0.57491,0.106243,0.0967172,0.105616,0,0,0,0,0,0,0,0,0,0
2.0254,-0.371101,-0.57491,0.125719,-0.0663713,0.0887635,-21.26252107,-32.9399166,7.203168105,-3.802795371,5.085773925,-0.371101,-0.57491,0.106243,0.0967172,0.105616,0,0,0,0,0,0,0,0,0,0
2.02639,-0.371101,-0.57491,0.125719,-0.0663713,0.0887635,-21.26252107,-32.9399166,7.203168105,-3.802795371,5.085773925,-0.371101,-0.57491,0.106243,0.0967172,0.105616,0,0,0,0,0,0,0,0,0,0
2.02741,-0.371101,-0.57491,0.125719,-0.0663713,0.0887635,-21.26252107,-32.9399166,7.203168105,-3.802795371,5.085773925,-0.371101,-0.57491,0.106243,0.0967172,0.105616,0,0,0,0,0,0,0,0,0,0
2.02839,-0.371101,-0.57491,0.125719,-0.0663713,0.0887635,-21.26252107,-32.9399166,7.203168105,-3.802795371,5.085773925,-0.371101,-0.57491,0.106243,0.0967172,0.105616,0,0,0,0,0,0,0,0,0,0
2.02939,-0.371101,-0.57491,0.125719,-0.0663713,0.0887635,-21.26252107,-32.9399166,7.203168105,-3.802795371,5.085773925,-0.371101,-0.57491,0.106243,0.0967172,0.105616,0,0,0,0,0,0,0,0,0,0
2.0304,-0.371101,-0.57491,0.125719,-0.0663713,0.0887635,-21.26252107,-32.9399166,7.203168105,-3.802795371,5.085773925,-0.371101,-0.57491,0.106243,0.0967172,0.105616,0,0,0,0,0,0,0,0,0,0
2.03139,-0.371101,-0.57491,0.125719,-0.0663713,0.0887635,-21.26252107,-32.9399166,7.203168105,-3.802795371,5.085773925,-0.371101,-0.57491,0.106243,0.0967172,0.105616,0,0,0,0,0,0,0,0,0,0
2.0324,-0.371101,-0.57491,0.125719,-0.0663713,0.0887635,-21.26252107,-32.9399166,7.203168105,-3.802795371,5.085773925,-0.371101,-0.57491,0.106243,0.0967172,0.105616,0,0,0,0,0,0,0,0,0,0
2.03341,-0.371101,-0.57491,0.125719,-0.0663713,0.0887635,-21.26252107,-32.9399166,7.203168105,-3.802795371,5.085773925,-0.371101,-0.57491,0.106243,0.0967172,0.105616,0,0,0,0,0,0,0,0,0,0
2.03439,-0.371101,-0.57491,0.125719,-0.0663713,0.0887635,-21.26252107,-32.9399166,7.203168105,-3.802795371,5.085773925,-0.371101,-0.57491,0.106243,0.0967172,0.105616,0,0,0,0,0,0,0,0,0,0
2.0354,-0.371101,-0.57491,0.125719,-0.0663713,0.0887635,-21.26252107,-32.9399166,7.203168105,-3.802795371,5.085773925,-0.371101,-0.57491,0.106243,0.0967172,0.105616,0,0,0,0,0,0,0,0,0,0
2.0364,-0.371101,-0.57491,0.125719,-0.0663713,0.0887635,-21.26252107,-32.9399166,7.203168105,-3.802795371,5.085773925,-0.371101,-0.57491,0.106243,0.0967172,0.105616,0,0,0,0,0,0,0,0,0,0
2.0374,-0.371101,-0.57491,0.125719,-0.0663713,0.0887635,-21.26252107,-32.9399166,7.203168105,-3.802795371,5.085773925,-0.371101,-0.57491,0.106243,0.0967172,0.105616,0,0,0,0,0,0,0,0,0,0
2.0384,-0.371101,-0.57491,0.125719,-0.0663713,0.0887635,-21.26252107,-32.9399166,7.203168105,-3.802795371,5.085773925,-0.371101,-0.57491,0.106243,0.0967172,0.105616,0,0,0,0,0,0,0,0,0,0
2.03941,-0.371101,-0.57491,0.125719,-0.0663713,0.0887635,-21.26252107,-32.9399166,7.203168105,-3.802795371,5.085773925,-0.371101,-0.57491,0.106243,0.0967172,0.105616,0,0,0,0,0,0,0,0,0,0
2.0404,-0.371101,-0.57491,0.125708,-0.0663093,0.0887619,-21.26252107,-32.9399166,7.202537851,-3.799243032,5.085682252,-0.371101,-0.57491,0.106239,0.0967172,0.105616,0,0,0,0,0,0,0,0,0,0
2.0414,-0.371101,-0.57491,0.125708,-0.0663093,0.0887619,-21.26252107,-32.9399166,7.202537851,-3.799243032,5.085682252,-0.371101,-0.57491,0.106239,0.0967172,0.105616,0,0,0,0,0,0,0,0,0,0
2.04241,-0.371101,-0.57491,0.125708,-0.0663093,0.0887619,-21.26252107,-32.9399166,7.202537851,-3.799243032,5.085682252,-0.371101,-0.57491,0.106239,0.0967172,0.105616,0,0,0,0,0,0,0,0,0,0
2.04341,-0.371101,-0.57491,0.125708,-0.0663093,0.0887619,-21.26252107,-32.9399166,7.202537851,-3.799243032,5.085682252,-0.371101,-0.57491,0.106239,0.0967172,0.105616,0,0,0,0,0,0,0,0,0,0
2.04441,-0.371101,-0.57491,0.125708,-0.0663093,0.0887619,-21.26252107,-32.9399166,7.202537851,-3.799243032,5.085682252,-0.371101,-0.57491,0.106239,0.0967172,0.105616,0,0,0,0,0,0,0,0,0,0
2.04541,-0.371101,-0.57491,0.125708,-0.0663093,0.0887619,-21.26252107,-32.9399166,7.202537851,-3.799243032,5.085682252,-0.371101,-0.57491,0.106239,0.0967172,0.105616,0,0,0,0,0,0,0,0,0,0
2.04641,-0.371101,-0.57491,0.125708,-0.0663093,0.0887619,-21.26252107,-32.9399166,7.202537851,-3.799243032,5.085682252,-0.371101,-0.57491,0.106239,0.0967172,0.105616,0,0,0,0,0,0,0,0,0,0
2.04741,-0.371101,-0.57491,0.125697,-0.0662474,0.0887603,-21.26252107,-32.9399166,7.201907597,-3.795696424,5.085590578,-0.371101,-0.57491,0.106234,0.0967172,0.105616,0,0,0,0,0,0,0,0,0,0
2.04841,-0.371101,-0.57491,0.125697,-0.0662474,0.0887603,-21.26252107,-32.9399166,7.201907597,-3.795696424,5.085590578,-0.371101,-0.57491,0.106234,0.0967172,0.105616,0,0,0,0,0,0,0,0,0,0
2.04941,-0.371101,-0.57491,0.125697,-0.0662474,0.0887603,-21.26252107,-32.9399166,7.201907597,-3.795696424,5.085590578,-0.371101,-0.57491,0.106234,0.0967172,0.105616,0,0,0,0,0,0,0,0,0,0
2.05041,-0.371101,-0.57491,0.125697,-0.0662474,0.0887603,-21.26252107,-32.9399166,7.201907597,-3.795696424,5.085590578,-0.371101,-0.57491,0.106234,0.0967172,0.105616,0,0,0,0,0,0,0,0,0,0
2.05141,-0.371101,-0.57491,0.125697,-0.0662474,0.0887603,-21.26252107,-32.9399166,7.201907597,-3.795696424,5.085590578,-0.371101,-0.57491,0.106234,0.0967172,0.105616,0,0,0,0,0,0,0,0,0,0
2.05243,-0.371101,-0.57491,0.125697,-0.0662474,0.0887603,-21.26252107,-32.9399166,7.201907597,-3.795696424,5.085590578,-0.371101,-0.57491,0.106234,0.0967172,0.105616,0,0,0,0,0,0,0,0,0,0
2.05342,-0.371101,-0.57491,0.125697,-0.0662474,0.0887603,-21.26252107,-32.9399166,7.201907597,-3.795696424,5.085590578,-0.371101,-0.57491,0.106234,0.0967172,0.105616,0,0,0,0,0,0,0,0,0,0
2.05442,-0.371101,-0.57491,0.125687,-0.0661854,0.0887587,-21.26252107,-32.9399166,7.20133464,-3.792144085,5.085498905,-0.371101,-0.57491,0.10623,0.0967172,0.105616,0,0,0,0,0,0,0,0,0,0
2.05542,-0.371101,-0.57491,0.125687,-0.0661854,0.0887587,-21.26252107,-32.9399166,7.20133464,-3.792144085,5.085498905,-0.371101,-0.57491,0.10623,0.0967172,0.105616,0,0,0,0,0,0,0,0,0,0
2.05642,-0.371101,-0.57491,0.125687,-0.0661854,0.0887587,-21.26252107,-32.9399166,7.20133464,-3.792144085,5.085498905,-0.371101,-0.57491,0.10623,0.0967172,0.105616,0,0,0,0,0,0,0,0,0,0
2.05742,-0.371101,-0.57491,0.125687,-0.0661854,0.0887587,-21.26252107,-32.9399166,7.20133464,-3.792144085,5.085498905,-0.371101,-0.57491,0.10623,0.0967172,0.105616,0,0,0,0,0,0,0,0,0,0
2.05842,-0.371101,-0.57491,0.125687,-0.0661854,0.0887587,-21.26252107,-32.9399166,7.20133464,-3.792144085,5.085498905,-0.371101,-0.57491,0.10623,0.0967172,0.105616,0,0,0,0,0,0,0,0,0,0
2.05942,-0.371101,-0.57491,0.125687,-0.0661854,0.0887587,-21.26252107,-32.9399166,7.20133464,-3.792144085,5.085498905,-0.371101,-0.57491,0.10623,0.0967172,0.105616,0,0,0,0,0,0,0,0,0,0
2.06044,-0.371101,-0.57491,0.125687,-0.0661854,0.0887587,-21.26252107,-32.9399166,7.20133464,-3.792144085,5.085498905,-0.371101,-0.57491,0.10623,0.0967172,0.105616,0,0,0,0,0,0,0,0,0,0
2.06142,-0.371101,-0.57491,0.125687,-0.0661854,0.0887587,-21.26252107,-32.9399166,7.20133464,-3.792144085,5.085498905,-0.371101,-0.57491,0.10623,0.0967172,0.105616,0,0,0,0,0,0,0,0,0,0
2.06244,-0.371101,-0.57491,0.125676,-0.0661235,0.0887571,-21.26252107,-32.9399166,7.200704386,-3.788597477,5.085407232,-0.371101,-0.57491,0.106225,0.0967172,0.105616,0,0,0,0,0,0,0,0,0,0
2.06343,-0.371101,-0.57491,0.125676,-0.0661235,0.0887571,-21.26252107,-32.9399166,7.200704386,-3.788597477,5.085407232,-0.371101,-0.57491,0.106225,0.0967172,0.105616,0,0,0,0,0,0,0,0,0,0
2.06443,-0.371101,-0.57491,0.125676,-0.0661235,0.0887571,-21.26252107,-32.9399166,7.200704386,-3.788597477,5.085407232,-0.371101,-0.57491,0.106225,0.0967172,0.105616,0,0,0,0,0,0,0,0,0,0
2.06544,-0.371101,-0.57491,0.125676,-0.0661235,0.0887571,-21.26252107,-32.9399166,7.200704386,-3.788597477,5.085407232,-0.371101,-0.57491,0.106225,0.0967172,0.105616,0,0,0,0,0,0,0,0,0,0
2.06643,-0.371101,-0.57491,0.125676,-0.0661235,0.0887571,-21.26252107,-32.9399166,7.200704386,-3.788597477,5.085407232,-0.371101,-0.57491,0.106225,0.0967172,0.105616,0,0,0,0,0,0,0,0,0,0
2.06743,-0.371101,-0.57491,0.125665,-0.0660615,0.0887554,-21.26252107,-32.9399166,7.200074133,-3.785045138,5.085309829,-0.371101,-0.57491,0.106221,0.0967172,0.105616,0,0,-0.00159678,0.00917757,-0.000239785,0,0,-0.000663721,0,0
2.06843,-0.371101,-0.57491,0.125665,-0.0660615,0.0887554,-21.26252107,-32.9399166,7.200074133,-3.785045138,5.085309829,-0.371101,-0.57491,0.106221,0.0967172,0.105616,0,0,-0.00159678,0.00917757,-0.000239785,0,0,-0.000663721,0,0
2.06943,-0.371101,-0.57491,0.125665,-0.0660615,0.0887554,-21.26252107,-32.9399166,7.200074133,-3.785045138,5.085309829,-0.371101,-0.57491,0.106221,0.0967172,0.105616,0,0,-0.00159678,0.00917757,-0.000239785,0,0,-0.000663721,0,0
2.07044,-0.371101,-0.57491,0.125665,-0.0660615,0.0887554,-21.26252107,-32.9399166,7.200074133,-3.785045138,5.085309829,-0.371101,-0.57491,0.106221,0.0967172,0.105616,0,0,-0.00159678,0.00917757,-0.000239785,0,0,-0.000663721,0,0
2.07144,-0.371101,-0.57491,0.125654,-0.0659995,0.0887538,-21.26252107,-32.9399166,7.199443879,-3.7814928,5.085218156,-0.371101,-0.57491,0.106216,0.0967172,0.105616,0,0,-0.00178883,0.0102823,-0.000268649,0,0,-0.000743584,0,0
2.07245,-0.371101,-0.57491,0.125654,-0.0659995,0.0887538,-21.26252107,-32.9399166,7.199443879,-3.7814928,5.085218156,-0.371101,-0.57491,0.106216,0.0967172,0.105616,0,0,-0.00178883,0.0102823,-0.000268649,0,0,-0.000743584,0,0
2.07344,-0.371101,-0.57491,0.125654,-0.0659995,0.0887538,-21.26252107,-32.9399166,7.199443879,-3.7814928,5.085218156,-0.371101,-0.57491,0.106216,0.0967172,0.105616,0,0,-0.00178883,0.0102823,-0.000268649,0,0,-0.000743584,0,0
2.07444,-0.371101,-0.57491,0.125654,-0.0659995,0.0887538,-21.26252107,-32.9399166,7.199443879,-3.7814928,5.085218156,-0.371101,-0.57491,0.106216,0.0967172,0.105616,0,0,-0.00178883,0.0102823,-0.000268649,0,0,-0.000743584,0,0
2.07544,-0.371101,-0.57491,0.125654,-0.0659995,0.0887538,-21.26252107,-32.9399166,7.199443879,-3.7814928,5.085218156,-0.371101,-0.57491,0.106216,0.0967172,0.105616,0,0,-0.00178883,0.0102823,-0.000268649,0,0,-0.000743584,0,0
2.07644,-0.371101,-0.57491,0.125712,-0.0659687,0.0887503,-21.26252107,-32.9399166,7.202767034,-3.77972809,5.085017621,-0.371101,-0.57491,0.106212,0.0967127,0.105616,0,0,-0.00194252,0.0111629,-0.000291653,0,0,-0.000807247,0,0
2.07744,-0.371101,-0.57491,0.125712,-0.0659687,0.0887503,-21.26252107,-32.9399166,7.202767034,-3.77972809,5.085017621,-0.371101,-0.57491,0.106212,0.0967127,0.105616,0,0,-0.00194252,0.0111629,-0.000291653,0,0,-0.000807247,0,0
2.07844,-0.371101,-0.57491,0.125712,-0.0659687,0.0887503,-21.26252107,-32.9399166,7.202767034,-3.77972809,5.085017621,-0.371101,-0.57491,0.106212,0.0967127,0.105616,0,0,-0.00194252,0.0111629,-0.000291653,0,0,-0.000807247,0,0
2.07944,-0.371101,-0.57491,0.125701,-0.0659067,0.0887486,-21.26252107,-32.9399166,7.202136781,-3.776175752,5.084920218,-0.371101,-0.57491,0.106207,0.0967127,0.105616,0,0,-0.00245005,0.0140808,-0.000367891,0,0,-0.00101822,0,0
2.08044,-0.371101,-0.57491,0.125701,-0.0659067,0.0887486,-21.26252107,-32.9399166,7.202136781,-3.776175752,5.084920218,-0.371101,-0.57491,0.106207,0.0967127,0.105616,0,0,-0.00245005,0.0140808,-0.000367891,0,0,-0.00101822,0,0
2.08144,-0.371101,-0.57491,0.125701,-0.0659067,0.0887486,-21.26252107,-32.9399166,7.202136781,-3.776175752,5.084920218,-0.371101,-0.57491,0.106207,0.0967127,0.105616,0,0,-0.00245005,0.0140808,-0.000367891,0,0,-0.00101822,0,0
2.08245,-0.371101,-0.57491,0.12569,-0.0658447,0.088747,-21.26252107,-32.9399166,7.201506527,-3.772623413,5.084828544,-0.371101,-0.57491,0.106203,0.0967127,0.105616,0,0,-0.00281823,0.0161981,-0.000423215,0,0,-0.00117128,0,0
2.08345,-0.371101,-0.57491,0.12569,-0.0658447,0.088747,-21.26252107,-32.9399166,7.201506527,-3.772623413,5.084828544,-0.371101,-0.57491,0.106203,0.0967127,0.105616,0,0,-0.00281823,0.0161981,-0.000423215,0,0,-0.00117128,0,0
2.08445,-0.371101,-0.57491,0.125679,-0.0657828,0.0887454,-21.26252107,-32.9399166,7.200876273,-3.769076805,5.084736871,-0.371101,-0.57491,0.106198,0.0967127,0.105616,0,0,-0.00331659,0.0190643,-0.000498104,0,0,-0.00137848,0,0
2.08545,-0.371101,-0.57491,0.125679,-0.0657828,0.0887454,-21.26252107,-32.9399166,7.200876273,-3.769076805,5.084736871,-0.371101,-0.57491,0.106198,0.0967127,0.105616,0,0,-0.00331659,0.0190643,-0.000498104,0,0,-0.00137848,0,0
2.08645,-0.371101,-0.57491,0.125669,-0.0657208,0.0887438,-21.26252107,-32.9399166,7.200303316,-3.765524466,5.084645198,-0.371101,-0.57491,0.106194,0.0967127,0.105616,0,0,-0.00426854,0.0245384,-0.000641134,0,0,-0.00177423,0,0
2.08745,-0.371101,-0.57491,0.125669,-0.0657208,0.0887438,-21.26252107,-32.9399166,7.200303316,-3.765524466,5.084645198,-0.371101,-0.57491,0.106194,0.0967127,0.105616,0,0,-0.00426854,0.0245384,-0.000641134,0,0,-0.00177423,0,0
2.08845,-0.371101,-0.57491,0.125658,-0.0656588,0.0887422,-21.26252107,-32.9399166,7.199673062,-3.761972128,5.084553525,-0.371101,-0.57491,0.106189,0.0967127,0.105616,0,0,-0.00495518,0.0284882,-0.00074434,0,0,-0.00205974,0,0
2.08946,-0.371101,-0.57491,0.125658,-0.0656588,0.0887422,-21.26252107,-32.9399166,7.199673062,-3.761972128,5.084553525,-0.371101,-0.57491,0.106189,0.0967127,0.105616,0,0,-0.00495518,0.0284882,-0.00074434,0,0,-0.00205974,0,0
2.09046,-0.371101,-0.57491,0.125647,-0.0655968,0.0887405,-21.26252107,-32.9399166,7.199042808,-3.75841979,5.084456122,-0.371101,-0.57491,0.106185,0.0967127,0.105616,0,0,-0.00519358,0.0298615,-0.000780227,0,0,-0.00215895,0,0
2.09146,-0.371101,-0.57491,0.125636,-0.0655349,0.0887389,-21.26252107,-32.9399166,7.198412555,-3.754873181,5.084364449,-0.371101,-0.57491,0.106181,0.0967127,0.105616,0,0,-0.00574729,0.0330481,-0.000863493,0,0,-0.00238925,0,0
2.09246,-0.371101,-0.57491,0.125636,-0.0655349,0.0887389,-21.26252107,-32.9399166,7.198412555,-3.754873181,5.084364449,-0.371101,-0.57491,0.106181,0.0967127,0.105616,0,0,-0.00574729,0.0330481,-0.000863493,0,0,-0.00238925,0,0
2.09346,-0.371101,-0.57491,0.125636,-0.0655349,0.0887389,-21.26252107,-32.9399166,7.198412555,-3.754873181,5.084364449,-0.371101,-0.57491,0.106181,0.0967127,0.105616,0,0,-0.00574729,0.0330481,-0.000863493,0,0,-0.00238925,0,0
2.09446,-0.371101,-0.57491,0.125625,-0.0654729,0.0887373,-21.26252107,-32.9399166,7.197782301,-3.751320842,5.084272775,-0.371101,-0.57491,0.106176,0.0967127,0.105616,0,0,-0.00545606,0.0313763,-0.000819817,0,0,-0.00226829,0,0
2.09546,-0.371101,-0.57491,0.125625,-0.0654729,0.0887373,-21.26252107,-32.9399166,7.197782301,-3.751320842,5.084272775,-0.371101,-0.57491,0.106176,0.0967127,0.105616,0,0,-0.00545606,0.0313763,-0.000819817,0,0,-0.00226829,0,0
2.09646,-0.371101,-0.57491,0.125615,-0.0654109,0.0887357,-21.26252107,-32.9399166,7.197209344,-3.747768504,5.084181102,-0.371101,-0.57491,0.106172,0.0967127,0.105616,0,0,-0.00545577,0.0313775,-0.000819853,0,0,-0.00226829,0,0
2.09747,-0.371101,-0.57491,0.125615,-0.0654109,0.0887357,-21.26252107,-32.9399166,7.197209344,-3.747768504,5.084181102,-0.371101,-0.57491,0.106172,0.0967127,0.105616,0,0,-0.00545577,0.0313775,-0.000819853,0,0,-0.00226829,0,0
2.09847,-0.371101,-0.57491,0.125604,-0.0653489,0.0887341,-21.26252107,-32.9399166,7.19657909,-3.744216166,5.084089429,-0.371101,-0.57491,0.106167,0.0967127,0.105616,0,0,-0.0060703,0.0349149,-0.000912288,0,0,-0.00252392,0,0
2.09947,-0.371101,-0.57491,0.125604,-0.0653489,0.0887341,-21.26252107,-32.9399166,7.19657909,-3.744216166,5.084089429,-0.371101,-0.57491,0.106167,0.0967127,0.105616,0,0,-0.0060703,0.0349149,-0.000912288,0,0,-0.00252392,0,0
2.10047,-0.371101,-0.57491,0.125604,-0.0653489,0.0887341,-21.26252107,-32.9399166,7.19657909,-3.744216166,5.084089429,-0.371101,-0.57491,0.106167,0.0967127,0.105616,0,0,-0.0060703,0.0349149,-0.000912288,0,0,-0.00252392,0,0
2.10147,-0.371101,-0.57491,0.125593,-0.0652869,0.0887324,-21.26252107,-32.9399166,7.195948836,-3.740663827,5.083992026,-0.371101,-0.57491,0.106163,0.0967127,0.105616,0,0,-0.00519237,0.0298679,-0.000780421,0,0,-0.002159,0,0
2.10247,-0.371101,-0.57491,0.125582,-0.065225,0.0887308,-21.26252107,-32.9399166,7.195318583,-3.737117219,5.083900353,-0.371101,-0.57491,0.106158,0.0967127,0.105616,0,0,-0.00582343,0.0335009,-0.000875355,0,0,-0.00242152,0,0
2.10347,-0.371101,-0.57491,0.125572,-0.065163,0.0887292,-21.26252107,-32.9399166,7.194745625,-3.73356488,5.08380868,-0.371101,-0.57491,0.106154,0.0967127,0.105616,0,0,-0.00606914,0.0349176,-0.000912378,0,0,-0.00252382,0,0
2.10447,-0.371101,-0.57491,0.125572,-0.065163,0.0887292,-21.26252107,-32.9399166,7.194745625,-3.73356488,5.08380868,-0.371101,-0.57491,0.106154,0.0967127,0.105616,0,0,-0.00606914,0.0349176,-0.000912378,0,0,-0.00252382,0,0
2.10547,-0.371101,-0.57491,0.12555,-0.065039,0.088726,-21.26252107,-32.9399166,7.193485118,-3.726460204,5.083625333,-0.371101,-0.57491,0.106145,0.0967127,0.105616,0,0,-0.00755727,0.043487,-0.00113631,0,0,-0.00314297,0,0
2.10648,-0.371101,-0.57491,0.12555,-0.065039,0.088726,-21.26252107,-32.9399166,7.193485118,-3.726460204,5.083625333,-0.371101,-0.57491,0.106145,0.0967127,0.105616,0,0,-0.00755727,0.043487,-0.00113631,0,0,-0.00314297,0,0
2.10747,-0.371101,-0.57491,0.12555,-0.065039,0.088726,-21.26252107,-32.9399166,7.193485118,-3.726460204,5.083625333,-0.371101,-0.57491,0.106145,0.0967127,0.105616,0,0,-0.00755727,0.043487,-0.00113631,0,0,-0.00314297,0,0
2.10847,-0.371101,-0.57491,0.125539,-0.064977,0.0887243,-21.26252107,-32.9399166,7.192854864,-3.722907865,5.08352793,-0.371101,-0.57491,0.10614,0.0967127,0.105616,0,0,-0.00718092,0.041325,-0.00107982,0,0,-0.0029866,0,0
2.10948,-0.371101,-0.57491,0.125529,-0.064915,0.0887227,-21.26252107,-32.9399166,7.192281906,-3.719355527,5.083436257,-0.371101,-0.57491,0.106136,0.0967127,0.105616,0,0,-0.00718062,0.041327,-0.00107988,0,0,-0.00298663,0,0
2.11097,-0.371101,-0.57491,0.125518,-0.064853,0.0887211,-21.26252107,-32.9399166,7.191651653,-3.715803189,5.083344584,-0.371101,-0.57491,0.106131,0.0967127,0.105616,0,0,-0.007693,0.0442799,-0.00115705,0,0,-0.00319991,0,0
2.11199,-0.371101,-0.57491,0.125507,-0.064791,0.0887195,-21.26252107,-32.9399166,7.191021399,-3.71225085,5.083252911,-0.371101,-0.57491,0.106127,0.0967127,0.105616,0,0,-0.0066291,0.0381596,-0.000997135,0,0,-0.00275752,0,0
2.11298,-0.371101,-0.57491,0.125507,-0.064791,0.0887195,-21.26252107,-32.9399166,7.191021399,-3.71225085,5.083252911,-0.371101,-0.57491,0.106127,0.0967127,0.105616,0,0,-0.0066291,0.0381596,-0.000997135,0,0,-0.00275752,0,0
2.11397,-0.371101,-0.57491,0.125496,-0.064729,0.0887179,-21.26252107,-32.9399166,7.190391146,-3.708698512,5.083161237,-0.371101,-0.57491,0.106122,0.0967127,0.105616,0,0,-0.00783236,0.0450901,-0.00117824,0,0,-0.00325821,0,0
2.11497,-0.371101,-0.57491,0.125485,-0.0646669,0.0887162,-21.26252107,-32.9399166,7.189760892,-3.705140444,5.083063834,-0.371101,-0.57491,0.106118,0.0967127,0.105616,0,0,-0.00755719,0.0435099,-0.00113696,0,0,-0.0031439,0,0
2.11598,-0.371101,-0.57491,0.125475,-0.0646049,0.0887146,-21.26252107,-32.9399166,7.189187934,-3.701588106,5.082972161,-0.371101,-0.57491,0.106113,0.0967127,0.105616,0,0,-0.00742659,0.0427617,-0.00111742,0,0,-0.00308973,0,0
2.11699,-0.371101,-0.57491,0.125475,-0.0646049,0.0887146,-21.26252107,-32.9399166,7.189187934,-3.701588106,5.082972161,-0.371101,-0.57491,0.106113,0.0967127,0.105616,0,0,-0.00742659,0.0427617,-0.00111742,0,0,-0.00308973,0,0
2.11798,-0.371101,-0.57491,0.125464,-0.0645429,0.088713,-21.26252107,-32.9399166,7.188557681,-3.698035768,5.082880488,-0.371101,-0.57491,0.106109,0.0967127,0.105616,0,0,-0.00828308,0.0476976,-0.0012464,0,0,-0.00344623,0,0
2.11898,-0.371101,-0.57491,0.125453,-0.0644809,0.0887114,-21.26252107,-32.9399166,7.187927427,-3.694483429,5.082788815,-0.371101,-0.57491,0.106104,0.0967127,0.105616,0,0,-0.00755612,0.0435153,-0.00113712,0,0,-0.00314394,0,0
2.11998,-0.371101,-0.57491,0.125442,-0.0644189,0.0887098,-21.26252107,-32.9399166,7.187297174,-3.690931091,5.082697141,-0.371101,-0.57491,0.1061,0.0967127,0.105616,0,0,-0.00935938,0.0539051,-0.00140863,0,0,-0.00389443,0,0
2.12098,-0.371101,-0.57491,0.125442,-0.0644189,0.0887098,-21.26252107,-32.9399166,7.187297174,-3.690931091,5.082697141,-0.371101,-0.57491,0.1061,0.0967127,0.105616,0,0,-0.00935938,0.0539051,-0.00140863,0,0,-0.00389443,0,0
2.12198,-0.371101,-0.57491,0.125421,-0.0642948,0.0887065,-21.26252107,-32.9399166,7.186093962,-3.683820685,5.082508065,-0.371101,-0.57491,0.106091,0.0967127,0.105616,0,0,-0.00916242,0.0527801,-0.00137926,0,0,-0.00381287,0,0
2.12298,-0.371101,-0.57491,0.125421,-0.0642948,0.0887065,-21.26252107,-32.9399166,7.186093962,-3.683820685,5.082508065,-0.371101,-0.57491,0.106091,0.0967127,0.105616,0,0,-0.00916242,0.0527801,-0.00137926,0,0,-0.00381287,0,0
2.12401,-0.371101,-0.57491,0.125399,-0.0641708,0.0887033,-21.26252107,-32.9399166,7.184833455,-3.676716008,5.082324719,-0.371101,-0.57491,0.106082,0.0967127,0.105616,0,0,-0.00957195,0.055149,-0.00144118,0,0,-0.00398369,0,0
2.12499,-0.371101,-0.57491,0.125399,-0.0641708,0.0887033,-21.26252107,-32.9399166,7.184833455,-3.676716008,5.082324719,-0.371101,-0.57491,0.106082,0.0967127,0.105616,0,0,-0.00957195,0.055149,-0.00144118,0,0,-0.00398369,0,0
2.126,-0.371101,-0.57491,0.125388,-0.0641087,0.0887017,-21.26252107,-32.9399166,7.184203202,-3.67315794,5.082233046,-0.371101,-0.57491,0.106077,0.0967127,0.105616,0,0,-0.00978493,0.0563811,-0.00147339,0,0,-0.00407254,0,0
2.12699,-0.371101,-0.57491,0.125378,-0.0640467,0.0887,-21.26252107,-32.9399166,7.183630244,-3.669605602,5.082135643,-0.371101,-0.57491,0.106073,0.0967127,0.105616,0,0,-0.00956723,0.0551317,-0.00144075,0,0,-0.00398213,0,0
2.12799,-0.371101,-0.57491,0.125367,-0.0639847,0.0886984,-21.26252107,-32.9399166,7.18299999,-3.666053263,5.08204397,-0.371101,-0.57491,0.106069,0.0967127,0.105616,0,0,-0.0091597,0.052788,-0.00137951,0,0,-0.0038127,0,0
2.12899,-0.371101,-0.57491,0.125356,-0.0639226,0.0886968,-21.26252107,-32.9399166,7.182369737,-3.662495196,5.081952296,-0.371101,-0.57491,0.106064,0.0967127,0.105616,0,0,-0.0091591,0.0527892,-0.00137955,0,0,-0.00381265,0,0
2.12999,-0.371101,-0.57491,0.125345,-0.0638606,0.0886952,-21.26252107,-32.9399166,7.181739483,-3.658942857,5.081860623,-0.371101,-0.57491,0.10606,0.0967127,0.105616,0,0,-0.0100109,0.0577036,-0.00150799,0,0,-0.00416742,0,0
2.13099,-0.371101,-0.57491,0.125345,-0.0638606,0.0886952,-21.26252107,-32.9399166,7.181739483,-3.658942857,5.081860623,-0.371101,-0.57491,0.10606,0.0967127,0.105616,0,0,-0.0100109,0.0577036,-0.00150799,0,0,-0.00416742,0,0
2.132,-0.371101,-0.57491,0.125335,-0.0637986,0.0886935,-21.26252107,-32.9399166,7.181166525,-3.655390519,5.08176322,-0.371101,-0.57491,0.106055,0.0967127,0.105616,0,0,-0.0087849,0.0506415,-0.00132345,0,0,-0.00365725,0,0
2.133,-0.371101,-0.57491,0.125335,-0.0637986,0.0886935,-21.26252107,-32.9399166,7.181166525,-3.655390519,5.08176322,-0.371101,-0.57491,0.106055,0.0967127,0.105616,0,0,-0.0087849,0.0506415,-0.00132345,0,0,-0.00365725,0,0
2.134,-0.371101,-0.57491,0.125313,-0.0636745,0.0886903,-21.26252107,-32.9399166,7.179906018,-3.648280113,5.081579874,-0.371101,-0.57491,0.106046,0.0967127,0.105616,0,0,-0.008275,0.0477107,-0.00124687,0,0,-0.00344532,0,0
2.135,-0.371101,-0.57491,0.125313,-0.0636745,0.0886903,-21.26252107,-32.9399166,7.179906018,-3.648280113,5.081579874,-0.371101,-0.57491,0.106046,0.0967127,0.105616,0,0,-0.008275,0.0477107,-0.00124687,0,0,-0.00344532,0,0
2.136,-0.371101,-0.57491,0.125292,-0.0635504,0.0886871,-21.26252107,-32.9399166,7.178702807,-3.641169706,5.081396527,-0.371101,-0.57491,0.106037,0.0967127,0.105616,0,0,-0.00915403,0.0527882,-0.00137959,0,0,-0.00381169,0,0
2.13701,-0.371101,-0.57491,0.125292,-0.0635504,0.0886871,-21.26252107,-32.9399166,7.178702807,-3.641169706,5.081396527,-0.371101,-0.57491,0.106037,0.0967127,0.105616,0,0,-0.00915403,0.0527882,-0.00137959,0,0,-0.00381169,0,0
2.138,-0.371101,-0.57491,0.125281,-0.0634883,0.0886854,-21.26252107,-32.9399166,7.178072553,-3.637611638,5.081299124,-0.371101,-0.57491,0.106033,0.0967127,0.105616,0,0,-0.0107593,0.0620507,-0.00162167,0,0,-0.00448034,0,0
2.139,-0.371101,-0.57491,0.12527,-0.0634262,0.0886838,-21.26252107,-32.9399166,7.1774423,-3.634053571,5.081207451,-0.371101,-0.57491,0.106028,0.0967127,0.105616,0,0,-0.00935886,0.053979,-0.00141073,0,0,-0.00389738,0,0
2.14001,-0.371101,-0.57491,0.125259,-0.0633642,0.0886822,-21.26252107,-32.9399166,7.176812046,-3.630501232,5.081115778,-0.371101,-0.57491,0.106024,0.0967127,0.105616,0,0,-0.0099498,0.0573925,-0.00149995,0,0,-0.00414368,0,0
2.14101,-0.371101,-0.57491,0.125249,-0.0633021,0.0886806,-21.26252107,-32.9399166,7.176239088,-3.626943164,5.081024105,-0.371101,-0.57491,0.106019,0.0967127,0.105616,0,0,-0.00967382,0.0558056,-0.00145849,0,0,-0.00402895,0,0
2.14201,-0.371101,-0.57491,0.125238,-0.0632401,0.088679,-21.26252107,-32.9399166,7.175608835,-3.623390826,5.080932431,-0.371101,-0.57491,0.106015,0.0967127,0.105616,0,0,-0.00915513,0.0528182,-0.00138042,0,0,-0.00381312,0,0
2.14301,-0.371101,-0.57491,0.125227,-0.063178,0.0886773,-21.26252107,-32.9399166,7.174978581,-3.619832758,5.080835029,-0.371101,-0.57491,0.10601,0.0967127,0.105616,0,0,-0.00950893,0.0548642,-0.0014339,0,0,-0.00396068,0,0
2.14401,-0.371101,-0.57491,0.125216,-0.0631159,0.0886757,-21.26252107,-32.9399166,7.174348328,-3.61627469,5.080743355,-0.371101,-0.57491,0.106006,0.0967127,0.105616,0,0,-0.0100056,0.0577352,-0.00150895,0,0,-0.00416777,0,0
2.14501,-0.371101,-0.57491,0.125216,-0.0631159,0.0886757,-21.26252107,-32.9399166,7.174348328,-3.61627469,5.080743355,-0.371101,-0.57491,0.106006,0.0967127,0.105616,0,0,-0.0100056,0.0577352,-0.00150895,0,0,-0.00416777,0,0
2.14601,-0.371101,-0.57491,0.125206,-0.0630538,0.0886741,-21.26252107,-32.9399166,7.17377537,-3.612716622,5.080651682,-0.371101,-0.57491,0.106001,0.0967127,0.105616,0,0,-0.00851888,0.0491606,-0.00128486,0,0,-0.00354866,0,0
2.14701,-0.371101,-0.57491,0.125195,-0.0629918,0.0886725,-21.26252107,-32.9399166,7.173145116,-3.609164284,5.080560009,-0.371101,-0.57491,0.105997,0.0967127,0.105616,0,0,-0.00977677,0.0564246,-0.00147472,0,0,-0.00407285,0,0
2.14802,-0.371101,-0.57491,0.125184,-0.0629297,0.0886708,-21.26252107,-32.9399166,7.172514863,-3.605606216,5.080462606,-0.371101,-0.57491,0.105992,0.0967127,0.105616,0,0,-0.00983181,0.0567474,-0.00148316,0,0,-0.00409599,0,0
2.14902,-0.371101,-0.57491,0.125173,-0.0628676,0.0886692,-21.26252107,-32.9399166,7.171884609,-3.602048148,5.080370933,-0.371101,-0.57491,0.105988,0.0967127,0.105616,0,0,-0.00982689,0.056724,-0.00148256,0,0,-0.00409415,0,0
2.15002,-0.371101,-0.57491,0.125163,-0.0628055,0.0886676,-21.26252107,-32.9399166,7.171311651,-3.59849008,5.08027926,-0.371101,-0.57491,0.105983,0.0967127,0.105616,0,0,-0.0100025,0.0577427,-0.0015092,0,0,-0.00416751,0,0
2.15102,-0.371101,-0.57491,0.125152,-0.0627435,0.088666,-21.26252107,-32.9399166,7.170681398,-3.594937742,5.080187586,-0.371101,-0.57491,0.105979,0.0967127,0.105616,0,0,-0.00915077,0.0528307,-0.00138083,0,0,-0.00381284,0,0
2.15202,-0.371101,-0.57491,0.125141,-0.0626814,0.0886644,-21.26252107,-32.9399166,7.170051144,-3.591379674,5.080095913,-0.371101,-0.57491,0.105974,0.0967127,0.105616,0,0,-0.00961035,0.0554889,-0.00145031,0,0,-0.00400454,0,0
2.15302,-0.371101,-0.57491,0.125141,-0.0626814,0.0886644,-21.26252107,-32.9399166,7.170051144,-3.591379674,5.080095913,-0.371101,-0.57491,0.105974,0.0967127,0.105616,0,0,-0.00961035,0.0554889,-0.00145031,0,0,-0.00400454,0,0
2.15403,-0.371101,-0.57491,0.12513,-0.0626193,0.0886627,-21.26252107,-32.9399166,7.16942089,-3.587821606,5.07999851,-0.371101,-0.57491,0.10597,0.0967127,0.105616,0,0,-0.00827312,0.0477722,-0.00124863,0,0,-0.0034475,0,0
2.15503,-0.371101,-0.57491,0.12512,-0.0625572,0.0886611,-21.26252107,-32.9399166,7.168847933,-3.584263538,5.079906837,-0.371101,-0.57491,0.105965,0.0967127,0.105616,0,0,-0.00877592,0.0506801,-0.00132464,0,0,-0.00365721,0,0
2.15603,-0.371101,-0.57491,0.125109,-0.0624951,0.0886595,-21.26252107,-32.9399166,7.168217679,-3.58070547,5.079815164,-0.371101,-0.57491,0.105961,0.0967127,0.105616,0,0,-0.00895829,0.0517379,-0.0013523,0,0,-0.00373339,0,0
2.15702,-0.371101,-0.57491,0.125098,-0.062433,0.0886579,-21.26252107,-32.9399166,7.167587426,-3.577147402,5.07972349,-0.371101,-0.57491,0.105956,0.0967127,0.105616,0,0,-0.00838988,0.0484593,-0.00126662,0,0,-0.00349668,0,0
2.15803,-0.371101,-0.57491,0.125087,-0.0623709,0.0886562,-21.26252107,-32.9399166,7.166957172,-3.573589334,5.079626088,-0.371101,-0.57491,0.105952,0.0967127,0.105616,0,0,-0.00977193,0.056447,-0.00147541,0,0,-0.00407289,0,0
2.15903,-0.371101,-0.57491,0.125087,-0.0623709,0.0886562,-21.26252107,-32.9399166,7.166957172,-3.573589334,5.079626088,-0.371101,-0.57491,0.105952,0.0967127,0.105616,0,0,-0.00977193,0.056447,-0.00147541,0,0,-0.00407289,0,0
2.16003,-0.371101,-0.57491,0.125077,-0.0623088,0.0886546,-21.26252107,-32.9399166,7.166384214,-3.570031267,5.079534414,-0.371101,-0.57491,0.105948,0.0967127,0.105616,0,0,-0.00955421,0.0551943,-0.00144268,0,0,-0.00398235,0,0
2.16103,-0.371101,-0.57491,0.125066,-0.0622467,0.088653,-21.26252107,-32.9399166,7.165753961,-3.566473199,5.079442741,-0.371101,-0.57491,0.105943,0.0967127,0.105616,0,0,-0.00977095,0.0564514,-0.00147554,0,0,-0.00407289,0,0
2.16203,-0.371101,-0.57491,0.125055,-0.0621846,0.0886514,-21.26252107,-32.9399166,7.165123707,-3.562915131,5.079351068,-0.371101,-0.57491,0.105939,0.0967127,0.105616,0,0,-0.0099976,0.057766,-0.00150992,0,0,-0.00416758,0,0
2.16303,-0.371101,-0.57491,0.125044,-0.0621225,0.0886497,-21.26252107,-32.9399166,7.164493453,-3.559357063,5.079253665,-0.371101,-0.57491,0.105934,0.0967127,0.105616,0,0,-0.00950026,0.0548973,-0.00143494,0,0,-0.00396046,0,0
2.16403,-0.371101,-0.57491,0.125034,-0.0620604,0.0886481,-21.26252107,-32.9399166,7.163920496,-3.555798995,5.079161992,-0.371101,-0.57491,0.10593,0.0967127,0.105616,0,0,-0.00955242,0.0552036,-0.00144296,0,0,-0.0039824,0,0
2.16503,-0.371101,-0.57491,0.125023,-0.0619983,0.0886465,-21.26252107,-32.9399166,7.163290242,-3.552240927,5.079070319,-0.371101,-0.57491,0.105925,0.0967127,0.105616,0,0,-0.00914544,0.0528564,-0.00138162,0,0,-0.00381292,0,0
2.16603,-0.371101,-0.57491,0.125012,-0.0619361,0.0886449,-21.26252107,-32.9399166,7.162659988,-3.54867713,5.078978645,-0.371101,-0.57491,0.105921,0.0967127,0.105616,0,0,-0.00914502,0.0528587,-0.00138168,0,0,-0.00381294,0,0
2.16704,-0.371101,-0.57491,0.125012,-0.0619361,0.0886449,-21.26252107,-32.9399166,7.162659988,-3.54867713,5.078978645,-0.371101,-0.57491,0.105921,0.0967127,0.105616,0,0,-0.00914502,0.0528587,-0.00138168,0,0,-0.00381294,0,0
2.16804,-0.371101,-0.57491,0.125001,-0.061874,0.0886432,-21.26252107,-32.9399166,7.162029735,-3.545119062,5.078881243,-0.371101,-0.57491,0.105916,0.0967127,0.105616,0,0,-0.00900071,0.0520292,-0.00136001,0,0,-0.00375296,0,0
2.16904,-0.371101,-0.57491,0.124991,-0.0618119,0.0886416,-21.26252107,-32.9399166,7.161456777,-3.541560994,5.078789569,-0.371101,-0.57491,0.105912,0.0967127,0.105616,0,0,-0.00842683,0.0487161,-0.00127342,0,0,-0.00351385,0,0
2.17004,-0.371101,-0.57491,0.124991,-0.0618119,0.0886416,-21.26252107,-32.9399166,7.161456777,-3.541560994,5.078789569,-0.371101,-0.57491,0.105912,0.0967127,0.105616,0,0,-0.00842683,0.0487161,-0.00127342,0,0,-0.00351385,0,0
2.17106,-0.371101,-0.57491,0.12498,-0.0617498,0.08864,-21.26252107,-32.9399166,7.160826524,-3.538002926,5.078697896,-0.371101,-0.57491,0.105907,0.0967127,0.105616,0,0,-0.00767402,0.0443681,-0.00115977,0,0,-0.0032001,0,0
2.17204,-0.371101,-0.57491,0.124969,-0.0616877,0.0886384,-21.26252107,-32.9399166,7.16019627,-3.534444858,5.078606223,-0.371101,-0.57491,0.105903,0.0967127,0.105616,0,0,-0.00728329,0.0421127,-0.00110083,0,0,-0.00303731,0,0
2.17307,-0.371101,-0.57491,0.124958,-0.0616255,0.0886368,-21.26252107,-32.9399166,7.159566016,-3.53088106,5.07851455,-0.371101,-0.57491,0.105898,0.0967127,0.105616,0,0,-0.00728292,0.0421144,-0.00110088,0,0,-0.00303731,0,0
2.17405,-0.371101,-0.57491,0.124958,-0.0616255,0.0886368,-21.26252107,-32.9399166,7.159566016,-3.53088106,5.07851455,-0.371101,-0.57491,0.105898,0.0967127,0.105616,0,0,-0.00728292,0.0421144,-0.00110088,0,0,-0.00303731,0,0
2.17505,-0.371101,-0.57491,0.124948,-0.0615634,0.0886351,-21.26252107,-32.9399166,7.158993059,-3.527322992,5.078417147,-0.371101,-0.57491,0.105894,0.0967127,0.105616,0,0,-0.00788408,0.0455947,-0.00119186,0,0,-0.00328819,0,0
2.17606,-0.371101,-0.57491,0.124937,-0.0615013,0.0886335,-21.26252107,-32.9399166,7.158362805,-3.523764925,5.078325473,-0.371101,-0.57491,0.105889,0.0967127,0.105616,0,0,-0.00859333,0.0497008,-0.0012992,0,0,-0.00358417,0,0
2.17705,-0.371101,-0.57491,0.124937,-0.0615013,0.0886335,-21.26252107,-32.9399166,7.158362805,-3.523764925,5.078325473,-0.371101,-0.57491,0.105889,0.0967127,0.105616,0,0,-0.00859333,0.0497008,-0.0012992,0,0,-0.00358417,0,0
2.17805,-0.371101,-0.57491,0.124926,-0.0614391,0.0886319,-21.26252107,-32.9399166,7.157732551,-3.520201127,5.0782338,-0.371101,-0.57491,0.105885,0.0967127,0.105616,0,0,-0.00767254,0.0443792,-0.0011601,0,0,-0.00320028,0,0
2.17905,-0.371101,-0.57491,0.124915,-0.061377,0.0886303,-21.26252107,-32.9399166,7.157102298,-3.516643059,5.078142127,-0.371101,-0.57491,0.10588,0.0967127,0.105616,0,0,-0.00767208,0.0443806,-0.00116015,0,0,-0.00320025,0,0
2.18005,-0.371101,-0.57491,0.124915,-0.061377,0.0886303,-21.26252107,-32.9399166,7.157102298,-3.516643059,5.078142127,-0.371101,-0.57491,0.10588,0.0967127,0.105616,0,0,-0.00767208,0.0443806,-0.00116015,0,0,-0.00320025,0,0
2.18105,-0.371101,-0.57491,0.124905,-0.0613149,0.0886286,-21.26252107,-32.9399166,7.15652934,-3.513084991,5.078044724,-0.371101,-0.57491,0.105876,0.0967127,0.105616,0,0,-0.00710097,0.0410805,-0.00107389,0,0,-0.00296217,0,0
2.18205,-0.371101,-0.57491,0.124894,-0.0612527,0.088627,-21.26252107,-32.9399166,7.155899087,-3.509521194,5.077953051,-0.371101,-0.57491,0.105871,0.0967127,0.105616,0,0,-0.00681887,0.039452,-0.00103132,0,0,-0.00284464,0,0
2.18305,-0.371101,-0.57491,0.124883,-0.0611906,0.0886254,-21.26252107,-32.9399166,7.155268833,-3.505963126,5.077861378,-0.371101,-0.57491,0.105867,0.0967127,0.105616,0,0,-0.00781022,0.0451917,-0.00118138,0,0,-0.00325836,0,0
2.18405,-0.371101,-0.57491,0.124883,-0.0611906,0.0886254,-21.26252107,-32.9399166,7.155268833,-3.505963126,5.077861378,-0.371101,-0.57491,0.105867,0.0967127,0.105616,0,0,-0.00781022,0.0451917,-0.00118138,0,0,-0.00325836,0,0
2.18506,-0.371101,-0.57491,0.124872,-0.0611284,0.0886238,-21.26252107,-32.9399166,7.154638579,-3.502399328,5.077769704,-0.371101,-0.57491,0.105862,0.0967127,0.105616,0,0,-0.00715893,0.0414269,-0.00108297,0,0,-0.0029868,0,0
2.18606,-0.371101,-0.57491,0.124872,-0.0611284,0.0886238,-21.26252107,-32.9399166,7.154638579,-3.502399328,5.077769704,-0.371101,-0.57491,0.105862,0.0967127,0.105616,0,0,-0.00715893,0.0414269,-0.00108297,0,0,-0.0029868,0,0
2.18706,-0.371101,-0.57491,0.124862,-0.0610663,0.0886221,-21.26252107,-32.9399166,7.154065622,-3.49884126,5.077672302,-0.371101,-0.57491,0.105858,0.0967127,0.105616,0,0,-0.0066078,0.038241,-0.000999689,0,0,-0.002757,0,0
2.18806,-0.371101,-0.57491,0.124862,-0.0610663,0.0886221,-21.26252107,-32.9399166,7.154065622,-3.49884126,5.077672302,-0.371101,-0.57491,0.105858,0.0967127,0.105616,0,0,-0.0066078,0.038241,-0.000999689,0,0,-0.002757,0,0
2.18906,-0.371101,-0.57491,0.124862,-0.0610663,0.0886221,-21.26252107,-32.9399166,7.154065622,-3.49884126,5.077672302,-0.371101,-0.57491,0.105858,0.0967127,0.105616,0,0,-0.0066078,0.038241,-0.000999689,0,0,-0.002757,0,0
2.19006,-0.371101,-0.57491,0.124851,-0.0610041,0.0886205,-21.26252107,-32.9399166,7.153435368,-3.495277463,5.077580628,-0.371101,-0.57491,0.105853,0.0967127,0.105616,0,0,-0.00565121,0.0327079,-0.00085505,0,0,-0.002358,0,0
2.19106,-0.371101,-0.57491,0.124851,-0.0610041,0.0886205,-21.26252107,-32.9399166,7.153435368,-3.495277463,5.077580628,-0.371101,-0.57491,0.105853,0.0967127,0.105616,0,0,-0.00565121,0.0327079,-0.00085505,0,0,-0.002358,0,0
2.19206,-0.371101,-0.57491,0.12484,-0.060942,0.0886189,-21.26252107,-32.9399166,7.152805114,-3.491719395,5.077488955,-0.371101,-0.57491,0.105849,0.0967127,0.105616,0,0,-0.0052373,0.030315,-0.000792499,0,0,-0.0021854,0,0
2.19306,-0.371101,-0.57491,0.12484,-0.060942,0.0886189,-21.26252107,-32.9399166,7.152805114,-3.491719395,5.077488955,-0.371101,-0.57491,0.105849,0.0967127,0.105616,0,0,-0.0052373,0.030315,-0.000792499,0,0,-0.0021854,0,0
2.19406,-0.371101,-0.57491,0.124829,-0.0608798,0.0886173,-21.26252107,-32.9399166,7.152174861,-3.488155598,5.077397282,-0.371101,-0.57491,0.105844,0.0967127,0.105616,0,0,-0.00487995,0.0282491,-0.000738497,0,0,-0.00203639,0,0
2.19506,-0.371101,-0.57491,0.124829,-0.0608798,0.0886173,-21.26252107,-32.9399166,7.152174861,-3.488155598,5.077397282,-0.371101,-0.57491,0.105844,0.0967127,0.105616,0,0,-0.00487995,0.0282491,-0.000738497,0,0,-0.00203639,0,0
2.19607,-0.371101,-0.57491,0.124819,-0.0608177,0.0886156,-21.26252107,-32.9399166,7.151601903,-3.48459753,5.077299879,-0.371101,-0.57491,0.10584,0.0967127,0.105616,0,0,-0.00482492,0.027933,-0.000730239,0,0,-0.00201352,0,0
2.19707,-0.371101,-0.57491,0.124819,-0.0608177,0.0886156,-21.26252107,-32.9399166,7.151601903,-3.48459753,5.077299879,-0.371101,-0.57491,0.10584,0.0967127,0.105616,0,0,-0.00482492,0.027933,-0.000730239,0,0,-0.00201352,0,0
2.19807,-0.371101,-0.57491,0.124808,-0.0607555,0.088614,-21.26252107,-32.9399166,7.150971649,-3.481033732,5.077208206,-0.371101,-0.57491,0.105836,0.0967127,0.105616,0,0,-0.00517329,0.0299525,-0.000783039,0,0,-0.00215901,0,0
2.19907,-0.371101,-0.57491,0.124808,-0.0607555,0.088614,-21.26252107,-32.9399166,7.150971649,-3.481033732,5.077208206,-0.371101,-0.57491,0.105836,0.0967127,0.105616,0,0,-0.00517329,0.0299525,-0.000783039,0,0,-0.00215901,0,0
2.20007,-0.371101,-0.57491,0.124808,-0.0607555,0.088614,-21.26252107,-32.9399166,7.150971649,-3.481033732,5.077208206,-0.371101,-0.57491,0.105836,0.0967127,0.105616,0,0,-0.00517329,0.0299525,-0.000783039,0,0,-0.00215901,0,0
2.20107,-0.371101,-0.57491,0.124797,-0.0606933,0.0886124,-21.26252107,-32.9399166,7.150341396,-3.477469935,5.077116533,-0.371101,-0.57491,0.105831,0.0967127,0.105616,0,0,-0.00471834,0.0273209,-0.000714246,0,0,-0.00196924,0,0
2.20207,-0.371101,-0.57491,0.124786,-0.0606312,0.0886108,-21.26252107,-32.9399166,7.149711142,-3.473911867,5.077024859,-0.371101,-0.57491,0.105827,0.0967127,0.105616,0,0,-0.00557602,0.03229,-0.000844159,0,0,-0.00232732,0,0
2.20308,-0.371101,-0.57491,0.124786,-0.0606312,0.0886108,-21.26252107,-32.9399166,7.149711142,-3.473911867,5.077024859,-0.371101,-0.57491,0.105827,0.0967127,0.105616,0,0,-0.00557602,0.03229,-0.000844159,0,0,-0.00232732,0,0
2.20408,-0.371101,-0.57491,0.124786,-0.0606312,0.0886108,-21.26252107,-32.9399166,7.149711142,-3.473911867,5.077024859,-0.371101,-0.57491,0.105827,0.0967127,0.105616,0,0,-0.00557602,0.03229,-0.000844159,0,0,-0.00232732,0,0
2.20509,-0.371101,-0.57491,0.124776,-0.060569,0.0886091,-21.26252107,-32.9399166,7.149138185,-3.470348069,5.076927456,-0.371101,-0.57491,0.105822,0.0967127,0.105616,0,0,-0.0046666,0.027026,-0.000706549,0,0,-0.00194784,0,0
2.20608,-0.371101,-0.57491,0.124776,-0.060569,0.0886091,-21.26252107,-32.9399166,7.149138185,-3.470348069,5.076927456,-0.371101,-0.57491,0.105822,0.0967127,0.105616,0,0,-0.0046666,0.027026,-0.000706549,0,0,-0.00194784,0,0
2.20709,-0.371101,-0.57491,0.124776,-0.060569,0.0886091,-21.26252107,-32.9399166,7.149138185,-3.470348069,5.076927456,-0.371101,-0.57491,0.105822,0.0967127,0.105616,0,0,-0.0046666,0.027026,-0.000706549,0,0,-0.00194784,0,0
2.20808,-0.371101,-0.57491,0.124776,-0.060569,0.0886091,-21.26252107,-32.9399166,7.149138185,-3.470348069,5.076927456,-0.371101,-0.57491,0.105822,0.0967127,0.105616,0,0,-0.0046666,0.027026,-0.000706549,0,0,-0.00194784,0,0
2.20997,-0.371101,-0.57491,0.124765,-0.0605068,0.0886075,-21.26252107,-32.9399166,7.148507931,-3.466784272,5.076835783,-0.371101,-0.57491,0.105818,0.0967127,0.105616,0,0,-0.00408857,0.0236806,-0.000619092,0,0,-0.00170666,0,0
2.21035,-0.371101,-0.57491,0.124765,-0.0605068,0.0886075,-21.26252107,-32.9399166,7.148507931,-3.466784272,5.076835783,-0.371101,-0.57491,0.105818,0.0967127,0.105616,0,0,-0.00408857,0.0236806,-0.000619092,0,0,-0.00170666,0,0
2.21136,-0.371101,-0.57491,0.124765,-0.0605068,0.0886075,-21.26252107,-32.9399166,7.148507931,-3.466784272,5.076835783,-0.371101,-0.57491,0.105818,0.0967127,0.105616,0,0,-0.00408857,0.0236806,-0.000619092,0,0,-0.00170666,0,0
2.21236,-0.371101,-0.57491,0.124765,-0.0605068,0.0886075,-21.26252107,-32.9399166,7.148507931,-3.466784272,5.076835783,-0.371101,-0.57491,0.105818,0.0967127,0.105616,0,0,-0.00408857,0.0236806,-0.000619092,0,0,-0.00170666,0,0
2.21338,-0.371101,-0.57491,0.124754,-0.0604446,0.0886059,-21.26252107,-32.9399166,7.147877677,-3.463220474,5.07674411,-0.371101,-0.57491,0.105813,0.0967127,0.105616,0,0,-0.00349006,0.0202159,-0.000528516,0,0,-0.0014569,0,0
2.21436,-0.371101,-0.57491,0.124754,-0.0604446,0.0886059,-21.26252107,-32.9399166,7.147877677,-3.463220474,5.07674411,-0.371101,-0.57491,0.105813,0.0967127,0.105616,0,0,-0.00349006,0.0202159,-0.000528516,0,0,-0.0014569,0,0
2.21537,-0.371101,-0.57491,0.124744,-0.0603825,0.0886043,-21.26252107,-32.9399166,7.14730472,-3.459662406,5.076652437,-0.371101,-0.57491,0.105809,0.0967127,0.105616,0,0,-0.00315627,0.0182841,-0.000478015,0,0,-0.00131763,0,0
2.21636,-0.371101,-0.57491,0.124744,-0.0603825,0.0886043,-21.26252107,-32.9399166,7.14730472,-3.459662406,5.076652437,-0.371101,-0.57491,0.105809,0.0967127,0.105616,0,0,-0.00315627,0.0182841,-0.000478015,0,0,-0.00131763,0,0
2.21736,-0.371101,-0.57491,0.124744,-0.0603825,0.0886043,-21.26252107,-32.9399166,7.14730472,-3.459662406,5.076652437,-0.371101,-0.57491,0.105809,0.0967127,0.105616,0,0,-0.00315627,0.0182841,-0.000478015,0,0,-0.00131763,0,0
2.21836,-0.371101,-0.57491,0.124744,-0.0603825,0.0886043,-21.26252107,-32.9399166,7.14730472,-3.459662406,5.076652437,-0.371101,-0.57491,0.105809,0.0967127,0.105616,0,0,-0.00315627,0.0182841,-0.000478015,0,0,-0.00131763,0,0
2.21936,-0.371101,-0.57491,0.124733,-0.0603203,0.0886026,-21.26252107,-32.9399166,7.146674466,-3.456098609,5.076555034,-0.371101,-0.57491,0.105804,0.0967127,0.105616,0,0,-0.00308789,0.0178895,-0.000467702,0,0,-0.00128914,0,0
2.22037,-0.371101,-0.57491,0.124733,-0.0603203,0.0886026,-21.26252107,-32.9399166,7.146674466,-3.456098609,5.076555034,-0.371101,-0.57491,0.105804,0.0967127,0.105616,0,0,-0.00308789,0.0178895,-0.000467702,0,0,-0.00128914,0,0
2.22137,-0.371101,-0.57491,0.124733,-0.0603203,0.0886026,-21.26252107,-32.9399166,7.146674466,-3.456098609,5.076555034,-0.371101,-0.57491,0.105804,0.0967127,0.105616,0,0,-0.00308789,0.0178895,-0.000467702,0,0,-0.00128914,0,0
2.22237,-0.371101,-0.57491,0.124722,-0.0602581,0.088601,-21.26252107,-32.9399166,7.146044212,-3.452534811,5.076463361,-0.371101,-0.57491,0.1058,0.0967127,0.105616,0,0,-0.00313273,0.0181509,-0.000474539,0,0,-0.00130793,0,0
2.22338,-0.371101,-0.57491,0.124722,-0.0602581,0.088601,-21.26252107,-32.9399166,7.146044212,-3.452534811,5.076463361,-0.371101,-0.57491,0.1058,0.0967127,0.105616,0,0,-0.00313273,0.0181509,-0.000474539,0,0,-0.00130793,0,0
2.22437,-0.371101,-0.57491,0.124722,-0.0602581,0.088601,-21.26252107,-32.9399166,7.146044212,-3.452534811,5.076463361,-0.371101,-0.57491,0.1058,0.0967127,0.105616,0,0,-0.00313273,0.0181509,-0.000474539,0,0,-0.00130793,0,0
2.22537,-0.371101,-0.57491,0.124722,-0.0602581,0.088601,-21.26252107,-32.9399166,7.146044212,-3.452534811,5.076463361,-0.371101,-0.57491,0.1058,0.0967127,0.105616,0,0,-0.00313273,0.0181509,-0.000474539,0,0,-0.00130793,0,0
2.22639,-0.371101,-0.57491,0.124711,-0.0601959,0.0885994,-21.26252107,-32.9399166,7.145413959,-3.448971014,5.076371687,-0.371101,-0.57491,0.105795,0.0967127,0.105616,0,0,-0.00320258,0.0185573,-0.000485167,0,0,-0.00133716,0,0
2.22738,-0.371101,-0.57491,0.124711,-0.0601959,0.0885994,-21.26252107,-32.9399166,7.145413959,-3.448971014,5.076371687,-0.371101,-0.57491,0.105795,0.0967127,0.105616,0,0,-0.00320258,0.0185573,-0.000485167,0,0,-0.00133716,0,0
2.22838,-0.371101,-0.57491,0.124711,-0.0601959,0.0885994,-21.26252107,-32.9399166,7.145413959,-3.448971014,5.076371687,-0.371101,-0.57491,0.105795,0.0967127,0.105616,0,0,-0.00320258,0.0185573,-0.000485167,0,0,-0.00133716,0,0
2.22939,-0.371101,-0.57491,0.124711,-0.0601959,0.0885994,-21.26252107,-32.9399166,7.145413959,-3.448971014,5.076371687,-0.371101,-0.57491,0.105795,0.0967127,0.105616,0,0,-0.00320258,0.0185573,-0.000485167,0,0,-0.00133716,0,0
2.23038,-0.371101,-0.57491,0.124711,-0.0601959,0.0885994,-21.26252107,-32.9399166,7.145413959,-3.448971014,5.076371687,-0.371101,-0.57491,0.105795,0.0967127,0.105616,0,0,-0.00320258,0.0185573,-0.000485167,0,0,-0.00133716,0,0
2.23138,-0.371101,-0.57491,0.124701,-0.0601337,0.0885978,-21.26252107,-32.9399166,7.144841001,-3.445407217,5.076280014,-0.371101,-0.57491,0.105791,0.0967127,0.105616,0,0,-0.00260078,0.0150715,-0.000394036,0,0,-0.00108594,0,0
2.23239,-0.371101,-0.57491,0.124701,-0.0601337,0.0885978,-21.26252107,-32.9399166,7.144841001,-3.445407217,5.076280014,-0.371101,-0.57491,0.105791,0.0967127,0.105616,0,0,-0.00260078,0.0150715,-0.000394036,0,0,-0.00108594,0,0
2.23339,-0.371101,-0.57491,0.124701,-0.0601337,0.0885978,-21.26252107,-32.9399166,7.144841001,-3.445407217,5.076280014,-0.371101,-0.57491,0.105791,0.0967127,0.105616,0,0,-0.00260078,0.0150715,-0.000394036,0,0,-0.00108594,0,0
2.23439,-0.371101,-0.57491,0.124701,-0.0601337,0.0885978,-21.26252107,-32.9399166,7.144841001,-3.445407217,5.076280014,-0.371101,-0.57491,0.105791,0.0967127,0.105616,0,0,-0.00260078,0.0150715,-0.000394036,0,0,-0.00108594,0,0
2.23539,-0.371101,-0.57491,0.124701,-0.0601337,0.0885978,-21.26252107,-32.9399166,7.144841001,-3.445407217,5.076280014,-0.371101,-0.57491,0.105791,0.0967127,0.105616,0,0,-0.00260078,0.0150715,-0.000394036,0,0,-0.00108594,0,0
2.23639,-0.371101,-0.57491,0.124701,-0.0601337,0.0885978,-21.26252107,-32.9399166,7.144841001,-3.445407217,5.076280014,-0.371101,-0.57491,0.105791,0.0967127,0.105616,0,0,-0.00260078,0.0150715,-0.000394036,0,0,-0.00108594,0,0
2.23739,-0.371101,-0.57491,0.12469,-0.0600716,0.0885961,-21.26252107,-32.9399166,7.144210747,-3.441849149,5.076182611,-0.371101,-0.57491,0.105786,0.0967127,0.105616,0,0,-0.00238405,0.0138168,-0.000361236,0,0,-0.000995501,0,0
2.23839,-0.371101,-0.57491,0.12469,-0.0600716,0.0885961,-21.26252107,-32.9399166,7.144210747,-3.441849149,5.076182611,-0.371101,-0.57491,0.105786,0.0967127,0.105616,0,0,-0.00238405,0.0138168,-0.000361236,0,0,-0.000995501,0,0
2.23939,-0.371101,-0.57491,0.12469,-0.0600716,0.0885961,-21.26252107,-32.9399166,7.144210747,-3.441849149,5.076182611,-0.371101,-0.57491,0.105786,0.0967127,0.105616,0,0,-0.00238405,0.0138168,-0.000361236,0,0,-0.000995501,0,0
2.24039,-0.371101,-0.57491,0.12469,-0.0600716,0.0885961,-21.26252107,-32.9399166,7.144210747,-3.441849149,5.076182611,-0.371101,-0.57491,0.105786,0.0967127,0.105616,0,0,-0.00238405,0.0138168,-0.000361236,0,0,-0.000995501,0,0
2.24139,-0.371101,-0.57491,0.12469,-0.0600716,0.0885961,-21.26252107,-32.9399166,7.144210747,-3.441849149,5.076182611,-0.371101,-0.57491,0.105786,0.0967127,0.105616,0,0,-0.00238405,0.0138168,-0.000361236,0,0,-0.000995501,0,0
2.24239,-0.371101,-0.57491,0.12469,-0.0600716,0.0885961,-21.26252107,-32.9399166,7.144210747,-3.441849149,5.076182611,-0.371101,-0.57491,0.105786,0.0967127,0.105616,0,0,-0.00238405,0.0138168,-0.000361236,0,0,-0.000995501,0,0
2.24341,-0.371101,-0.57491,0.12469,-0.0600716,0.0885961,-21.26252107,-32.9399166,7.144210747,-3.441849149,5.076182611,-0.371101,-0.57491,0.105786,0.0967127,0.105616,0,0,-0.00238405,0.0138168,-0.000361236,0,0,-0.000995501,0,0
2.2444,-0.371101,-0.57491,0.12469,-0.0600716,0.0885961,-21.26252107,-32.9399166,7.144210747,-3.441849149,5.076182611,-0.371101,-0.57491,0.105786,0.0967127,0.105616,0,0,-0.00238405,0.0138168,-0.000361236,0,0,-0.000995501,0,0
2.24542,-0.371101,-0.57491,0.12469,-0.0600716,0.0885961,-21.26252107,-32.9399166,7.144210747,-3.441849149,5.076182611,-0.371101,-0.57491,0.105786,0.0967127,0.105616,0,0,-0.00238405,0.0138168,-0.000361236,0,0,-0.000995501,0,0
2.2464,-0.371101,-0.57491,0.12469,-0.0600716,0.0885961,-21.26252107,-32.9399166,7.144210747,-3.441849149,5.076182611,-0.371101,-0.57491,0.105786,0.0967127,0.105616,0,0,-0.00238405,0.0138168,-0.000361236,0,0,-0.000995501,0,0
2.2474,-0.371101,-0.57491,0.12469,-0.0600716,0.0885961,-21.26252107,-32.9399166,7.144210747,-3.441849149,5.076182611,-0.371101,-0.57491,0.105786,0.0967127,0.105616,0,0,-0.00238405,0.0138168,-0.000361236,0,0,-0.000995501,0,0
2.24842,-0.371101,-0.57491,0.12469,-0.0600716,0.0885961,-21.26252107,-32.9399166,7.144210747,-3.441849149,5.076182611,-0.371101,-0.57491,0.105786,0.0967127,0.105616,0,0,-0.00238405,0.0138168,-0.000361236,0,0,-0.000995501,0,0
2.2494,-0.371101,-0.57491,0.12469,-0.0600716,0.0885961,-21.26252107,-32.9399166,7.144210747,-3.441849149,5.076182611,-0.371101,-0.57491,0.105786,0.0967127,0.105616,0,0,-0.00238405,0.0138168,-0.000361236,0,0,-0.000995501,0,0
2.2504,-0.371101,-0.57491,0.12469,-0.0600716,0.0885961,-21.26252107,-32.9399166,7.144210747,-3.441849149,5.076182611,-0.371101,-0.57491,0.105786,0.0967127,0.105616,0,0,-0.00238405,0.0138168,-0.000361236,0,0,-0.000995501,0,0
2.25141,-0.371101,-0.57491,0.12469,-0.0600716,0.0885961,-21.26252107,-32.9399166,7.144210747,-3.441849149,5.076182611,-0.371101,-0.57491,0.105786,0.0967127,0.105616,0,0,-0.00238405,0.0138168,-0.000361236,0,0,-0.000995501,0,0
2.25242,-0.371101,-0.57491,0.124679,-0.0600094,0.0885945,-21.26252107,-32.9399166,7.143580494,-3.438285351,5.076090938,-0.371101,-0.57491,0.105782,0.0967127,0.105616,0,0,-0.00142089,0.00823548,-0.000215316,0,0,-0.000593344,0,0
2.25341,-0.371101,-0.57491,0.124679,-0.0600094,0.0885945,-21.26252107,-32.9399166,7.143580494,-3.438285351,5.076090938,-0.371101,-0.57491,0.105782,0.0967127,0.105616,0,0,-0.00142089,0.00823548,-0.000215316,0,0,-0.000593344,0,0
2.25441,-0.371101,-0.57491,0.124679,-0.0600094,0.0885945,-21.26252107,-32.9399166,7.143580494,-3.438285351,5.076090938,-0.371101,-0.57491,0.105782,0.0967127,0.105616,0,0,-0.00142089,0.00823548,-0.000215316,0,0,-0.000593344,0,0
2.25541,-0.371101,-0.57491,0.124679,-0.0600094,0.0885945,-21.26252107,-32.9399166,7.143580494,-3.438285351,5.076090938,-0.371101,-0.57491,0.105782,0.0967127,0.105616,0,0,-0.00142089,0.00823548,-0.000215316,0,0,-0.000593344,0,0
2.25642,-0.371101,-0.57491,0.124679,-0.0600094,0.0885945,-21.26252107,-32.9399166,7.143580494,-3.438285351,5.076090938,-0.371101,-0.57491,0.105782,0.0967127,0.105616,0,0,-0.00142089,0.00823548,-0.000215316,0,0,-0.000593344,0,0
2.25743,-0.371101,-0.57491,0.124679,-0.0600094,0.0885945,-21.26252107,-32.9399166,7.143580494,-3.438285351,5.076090938,-0.371101,-0.57491,0.105782,0.0967127,0.105616,0,0,-0.00142089,0.00823548,-0.000215316,0,0,-0.000593344,0,0
2.25842,-0.371101,-0.57491,0.124679,-0.0600094,0.0885945,-21.26252107,-32.9399166,7.143580494,-3.438285351,5.076090938,-0.371101,-0.57491,0.105782,0.0967127,0.105616,0,0,-0.00142089,0.00823548,-0.000215316,0,0,-0.000593344,0,0
2.25941,-0.371101,-0.57491,0.124679,-0.0600094,0.0885945,-21.26252107,-32.9399166,7.143580494,-3.438285351,5.076090938,-0.371101,-0.57491,0.105782,0.0967127,0.105616,0,0,-0.00142089,0.00823548,-0.000215316,0,0,-0.000593344,0,0
2.26042,-0.371101,-0.57491,0.124679,-0.0600094,0.0885945,-21.26252107,-32.9399166,7.143580494,-3.438285351,5.076090938,-0.371101,-0.57491,0.105782,0.0967127,0.105616,0,0,-0.00142089,0.00823548,-0.000215316,0,0,-0.000593344,0,0
2.26142,-0.371101,-0.57491,0.124679,-0.0600094,0.0885945,-21.26252107,-32.9399166,7.143580494,-3.438285351,5.076090938,-0.371101,-0.57491,0.105782,0.0967127,0.105616,0,0,-0.00142089,0.00823548,-0.000215316,0,0,-0.000593344,0,0
2.26243,-0.371101,-0.57491,0.124679,-0.0600094,0.0885945,-21.26252107,-32.9399166,7.143580494,-3.438285351,5.076090938,-0.371101,-0.57491,0.105782,0.0967127,0.105616,0,0,-0.00142089,0.00823548,-0.000215316,0,0,-0.000593344,0,0
2.26342,-0.371101,-0.57491,0.124679,-0.0600094,0.0885945,-21.26252107,-32.9399166,7.143580494,-3.438285351,5.076090938,-0.371101,-0.57491,0.105782,0.0967127,0.105616,0,0,-0.00142089,0.00823548,-0.000215316,0,0,-0.000593344,0,0
2.26442,-0.371101,-0.57491,0.124679,-0.0600094,0.0885945,-21.26252107,-32.9399166,7.143580494,-3.438285351,5.076090938,-0.371101,-0.57491,0.105782,0.0967127,0.105616,0,0,-0.00142089,0.00823548,-0.000215316,0,0,-0.000593344,0,0
2.26543,-0.371101,-0.57491,0.124679,-0.0600094,0.0885945,-21.26252107,-32.9399166,7.143580494,-3.438285351,5.076090938,-0.371101,-0.57491,0.105782,0.0967127,0.105616,0,0,-0.00142089,0.00823548,-0.000215316,0,0,-0.000593344,0,0
2.26643,-0.371101,-0.57491,0.124668,-0.0599472,0.0885929,-21.26252107,-32.9399166,7.14295024,-3.434721554,5.075999265,-0.371101,-0.57491,0.105777,0.0967127,0.105616,0,0,-0.00106473,0.00617175,-0.000161361,0,0,-0.00044464,0,0
2.26742,-0.371101,-0.57491,0.124668,-0.0599472,0.0885929,-21.26252107,-32.9399166,7.14295024,-3.434721554,5.075999265,-0.371101,-0.57491,0.105777,0.0967127,0.105616,0,0,-0.00106473,0.00617175,-0.000161361,0,0,-0.00044464,0,0
2.26843,-0.371101,-0.57491,0.124668,-0.0599472,0.0885929,-21.26252107,-32.9399166,7.14295024,-3.434721554,5.075999265,-0.371101,-0.57491,0.105777,0.0967127,0.105616,0,0,-0.00106473,0.00617175,-0.000161361,0,0,-0.00044464,0,0
2.26943,-0.371101,-0.57491,0.124668,-0.0599472,0.0885929,-21.26252107,-32.9399166,7.14295024,-3.434721554,5.075999265,-0.371101,-0.57491,0.105777,0.0967127,0.105616,0,0,-0.00106473,0.00617175,-0.000161361,0,0,-0.00044464,0,0
2.27043,-0.371101,-0.57491,0.124668,-0.0599472,0.0885929,-21.26252107,-32.9399166,7.14295024,-3.434721554,5.075999265,-0.371101,-0.57491,0.105777,0.0967127,0.105616,0,0,-0.00106473,0.00617175,-0.000161361,0,0,-0.00044464,0,0
2.27143,-0.371101,-0.57491,0.124668,-0.0599472,0.0885929,-21.26252107,-32.9399166,7.14295024,-3.434721554,5.075999265,-0.371101,-0.57491,0.105777,0.0967127,0.105616,0,0,-0.00106473,0.00617175,-0.000161361,0,0,-0.00044464,0,0
2.27243,-0.371101,-0.57491,0.124668,-0.0599472,0.0885929,-21.26252107,-32.9399166,7.14295024,-3.434721554,5.075999265,-0.371101,-0.57491,0.105777,0.0967127,0.105616,0,0,-0.00106473,0.00617175,-0.000161361,0,0,-0.00044464,0,0
2.27343,-0.371101,-0.57491,0.124668,-0.0599472,0.0885929,-21.26252107,-32.9399166,7.14295024,-3.434721554,5.075999265,-0.371101,-0.57491,0.105777,0.0967127,0.105616,0,0,-0.00106473,0.00617175,-0.000161361,0,0,-0.00044464,0,0
2.27443,-0.371101,-0.57491,0.124668,-0.0599472,0.0885929,-21.26252107,-32.9399166,7.14295024,-3.434721554,5.075999265,-0.371101,-0.57491,0.105777,0.0967127,0.105616,0,0,-0.00106473,0.00617175,-0.000161361,0,0,-0.00044464,0,0
2.27545,-0.371101,-0.57491,0.124668,-0.0599472,0.0885929,-21.26252107,-32.9399166,7.14295024,-3.434721554,5.075999265,-0.371101,-0.57491,0.105777,0.0967127,0.105616,0,0,-0.00106473,0.00617175,-0.000161361,0,0,-0.00044464,0,0
2.27644,-0.371101,-0.57491,0.124668,-0.0599472,0.0885929,-21.26252107,-32.9399166,7.14295024,-3.434721554,5.075999265,-0.371101,-0.57491,0.105777,0.0967127,0.105616,0,0,-0.00106473,0.00617175,-0.000161361,0,0,-0.00044464,0,0
2.27744,-0.371101,-0.57491,0.124668,-0.0599472,0.0885929,-21.26252107,-32.9399166,7.14295024,-3.434721554,5.075999265,-0.371101,-0.57491,0.105777,0.0967127,0.105616,0,0,-0.00106473,0.00617175,-0.000161361,0,0,-0.00044464,0,0
2.27844,-0.371101,-0.57491,0.124668,-0.0599472,0.0885929,-21.26252107,-32.9399166,7.14295024,-3.434721554,5.075999265,-0.371101,-0.57491,0.105777,0.0967127,0.105616,0,0,-0.00106473,0.00617175,-0.000161361,0,0,-0.00044464,0,0
2.27944,-0.371101,-0.57491,0.124668,-0.0599472,0.0885929,-21.26252107,-32.9399166,7.14295024,-3.434721554,5.075999265,-0.371101,-0.57491,0.105777,0.0967127,0.105616,0,0,-0.00106473,0.00617175,-0.000161361,0,0,-0.00044464,0,0
2.28044,-0.371101,-0.57491,0.124668,-0.0599472,0.0885929,-21.26252107,-32.9399166,7.14295024,-3.434721554,5.075999265,-0.371101,-0.57491,0.105777,0.0967127,0.105616,0,0,-0.00106473,0.00617175,-0.000161361,0,0,-0.00044464,0,0
2.28144,-0.371101,-0.57491,0.124668,-0.0599472,0.0885929,-21.26252107,-32.9399166,7.14295024,-3.434721554,5.075999265,-0.371101,-0.57491,0.105777,0.0967127,0.105616,0,0,-0.00106473,0.00617175,-0.000161361,0,0,-0.00044464,0,0
2.28245,-0.371101,-0.57491,0.124668,-0.0599472,0.0885929,-21.26252107,-32.9399166,7.14295024,-3.434721554,5.075999265,-0.371101,-0.57491,0.105777,0.0967127,0.105616,0,0,-0.00106473,0.00617175,-0.000161361,0,0,-0.00044464,0,0
2.28344,-0.371101,-0.57491,0.124668,-0.0599472,0.0885929,-21.26252107,-32.9399166,7.14295024,-3.434721554,5.075999265,-0.371101,-0.57491,0.105777,0.0967127,0.105616,0,0,-0.00106473,0.00617175,-0.000161361,0,0,-0.00044464,0,0
2.28446,-0.371101,-0.57491,0.124668,-0.0599472,0.0885929,-21.26252107,-32.9399166,7.14295024,-3.434721554,5.075999265,-0.371101,-0.57491,0.105777,0.0967127,0.105616,0,0,-0.00106473,0.00617175,-0.000161361,0,0,-0.00044464,0,0
2.28545,-0.371101,-0.57491,0.124668,-0.0599472,0.0885929,-21.26252107,-32.9399166,7.14295024,-3.434721554,5.075999265,-0.371101,-0.57491,0.105777,0.0967127,0.105616,0,0,-0.00106473,0.00617175,-0.000161361,0,0,-0.00044464,0,0
2.28645,-0.371101,-0.57491,0.124668,-0.0599472,0.0885929,-21.26252107,-32.9399166,7.14295024,-3.434721554,5.075999265,-0.371101,-0.57491,0.105777,0.0967127,0.105616,0,0,-0.00106473,0.00617175,-0.000161361,0,0,-0.00044464,0,0
2.28745,-0.371101,-0.57491,0.124668,-0.0599472,0.0885929,-21.26252107,-32.9399166,7.14295024,-3.434721554,5.075999265,-0.371101,-0.57491,0.105777,0.0967127,0.105616,0,0,-0.00106473,0.00617175,-0.000161361,0,0,-0.00044464,0,0
2.28845,-0.371101,-0.57491,0.124668,-0.0599472,0.0885929,-21.26252107,-32.9399166,7.14295024,-3.434721554,5.075999265,-0.371101,-0.57491,0.105777,0.0967127,0.105616,0,0,-0.00106473,0.00617175,-0.000161361,0,0,-0.00044464,0,0
2.28946,-0.371101,-0.57491,0.124668,-0.0599472,0.0885929,-21.26252107,-32.9399166,7.14295024,-3.434721554,5.075999265,-0.371101,-0.57491,0.105777,0.0967127,0.105616,0,0,-0.00106473,0.00617175,-0.000161361,0,0,-0.00044464,0,0
2.29045,-0.371101,-0.57491,0.124658,-0.059885,0.0885913,-21.26252107,-32.9399166,7.142377283,-3.431157756,5.075907592,-0.371101,-0.57491,0.105773,0.0967127,0.105616,0,0,-0.000724766,0.0042015,-0.000109849,0,0,-0.000302683,0,0
2.29145,-0.371101,-0.57491,0.124658,-0.059885,0.0885913,-21.26252107,-32.9399166,7.142377283,-3.431157756,5.075907592,-0.371101,-0.57491,0.105773,0.0967127,0.105616,0,0,-0.000724766,0.0042015,-0.000109849,0,0,-0.000302683,0,0
2.29246,-0.371101,-0.57491,0.124658,-0.059885,0.0885913,-21.26252107,-32.9399166,7.142377283,-3.431157756,5.075907592,-0.371101,-0.57491,0.105773,0.0967127,0.105616,0,0,-0.000724766,0.0042015,-0.000109849,0,0,-0.000302683,0,0
2.29346,-0.371101,-0.57491,0.124658,-0.059885,0.0885913,-21.26252107,-32.9399166,7.142377283,-3.431157756,5.075907592,-0.371101,-0.57491,0.105773,0.0967127,0.105616,0,0,-0.000724766,0.0042015,-0.000109849,0,0,-0.000302683,0,0
2.29448,-0.371101,-0.57491,0.124658,-0.059885,0.0885913,-21.26252107,-32.9399166,7.142377283,-3.431157756,5.075907592,-0.371101,-0.57491,0.105773,0.0967127,0.105616,0,0,-0.000724766,0.0042015,-0.000109849,0,0,-0.000302683,0,0
2.29546,-0.371101,-0.57491,0.124658,-0.059885,0.0885913,-21.26252107,-32.9399166,7.142377283,-3.431157756,5.075907592,-0.371101,-0.57491,0.105773,0.0967127,0.105616,0,0,-0.000724766,0.0042015,-0.000109849,0,0,-0.000302683,0,0
2.29646,-0.371101,-0.57491,0.124658,-0.059885,0.0885913,-21.26252107,-32.9399166,7.142377283,-3.431157756,5.075907592,-0.371101,-0.57491,0.105773,0.0967127,0.105616,0,0,-0.000724766,0.0042015,-0.000109849,0,0,-0.000302683,0,0
2.29746,-0.371101,-0.57491,0.124658,-0.059885,0.0885913,-21.26252107,-32.9399166,7.142377283,-3.431157756,5.075907592,-0.371101,-0.57491,0.105773,0.0967127,0.105616,0,0,-0.000724766,0.0042015,-0.000109849,0,0,-0.000302683,0,0
2.29847,-0.371101,-0.57491,0.124658,-0.059885,0.0885913,-21.26252107,-32.9399166,7.142377283,-3.431157756,5.075907592,-0.371101,-0.57491,0.105773,0.0967127,0.105616,0,0,-0.000724766,0.0042015,-0.000109849,0,0,-0.000302683,0,0
2.29948,-0.371101,-0.57491,0.124658,-0.059885,0.0885913,-21.26252107,-32.9399166,7.142377283,-3.431157756,5.075907592,-0.371101,-0.57491,0.105773,0.0967127,0.105616,0,0,-0.000724766,0.0042015,-0.000109849,0,0,-0.000302683,0,0
2.30046,-0.371101,-0.57491,0.124658,-0.059885,0.0885913,-21.26252107,-32.9399166,7.142377283,-3.431157756,5.075907592,-0.371101,-0.57491,0.105773,0.0967127,0.105616,0,0,-0.000724766,0.0042015,-0.000109849,0,0,-0.000302683,0,0
2.30147,-0.371101,-0.57491,0.124658,-0.059885,0.0885913,-21.26252107,-32.9399166,7.142377283,-3.431157756,5.075907592,-0.371101,-0.57491,0.105773,0.0967127,0.105616,0,0,-0.000724766,0.0042015,-0.000109849,0,0,-0.000302683,0,0
2.30247,-0.371101,-0.57491,0.124658,-0.059885,0.0885913,-21.26252107,-32.9399166,7.142377283,-3.431157756,5.075907592,-0.371101,-0.57491,0.105773,0.0967127,0.105616,0,0,-0.000724766,0.0042015,-0.000109849,0,0,-0.000302683,0,0
2.30347,-0.371101,-0.57491,0.124658,-0.059885,0.0885913,-21.26252107,-32.9399166,7.142377283,-3.431157756,5.075907592,-0.371101,-0.57491,0.105773,0.0967127,0.105616,0,0,-0.000724766,0.0042015,-0.000109849,0,0,-0.000302683,0,0
2.30447,-0.371101,-0.57491,0.124658,-0.059885,0.0885913,-21.26252107,-32.9399166,7.142377283,-3.431157756,5.075907592,-0.371101,-0.57491,0.105773,0.0967127,0.105616,0,0,-0.000724766,0.0042015,-0.000109849,0,0,-0.000302683,0,0
2.30547,-0.371101,-0.57491,0.124658,-0.059885,0.0885913,-21.26252107,-32.9399166,7.142377283,-3.431157756,5.075907592,-0.371101,-0.57491,0.105773,0.0967127,0.105616,0,0,-0.000724766,0.0042015,-0.000109849,0,0,-0.000302683,0,0
2.30647,-0.371101,-0.57491,0.124658,-0.059885,0.0885913,-21.26252107,-32.9399166,7.142377283,-3.431157756,5.075907592,-0.371101,-0.57491,0.105773,0.0967127,0.105616,0,0,-0.000724766,0.0042015,-0.000109849,0,0,-0.000302683,0,0
2.30748,-0.371101,-0.57491,0.124658,-0.059885,0.0885913,-21.26252107,-32.9399166,7.142377283,-3.431157756,5.075907592,-0.371101,-0.57491,0.105773,0.0967127,0.105616,0,0,-0.000724766,0.0042015,-0.000109849,0,0,-0.000302683,0,0
2.30847,-0.371101,-0.57491,0.124658,-0.059885,0.0885913,-21.26252107,-32.9399166,7.142377283,-3.431157756,5.075907592,-0.371101,-0.57491,0.105773,0.0967127,0.105616,0,0,-0.000724766,0.0042015,-0.000109849,0,0,-0.000302683,0,0
2.30948,-0.371101,-0.57491,0.124658,-0.059885,0.0885913,-21.26252107,-32.9399166,7.142377283,-3.431157756,5.075907592,-0.371101,-0.57491,0.105773,0.0967127,0.105616,0,0,-0.000724766,0.0042015,-0.000109849,0,0,-0.000302683,0,0
2.31047,-0.371101,-0.57491,0.124658,-0.059885,0.0885913,-21.26252107,-32.9399166,7.142377283,-3.431157756,5.075907592,-0.371101,-0.57491,0.105773,0.0967127,0.105616,0,0,-0.000724766,0.0042015,-0.000109849,0,0,-0.000302683,0,0
2.3115,-0.371101,-0.57491,0.124658,-0.059885,0.0885913,-21.26252107,-32.9399166,7.142377283,-3.431157756,5.075907592,-0.371101,-0.57491,0.105773,0.0967127,0.105616,0,0,-0.000724766,0.0042015,-0.000109849,0,0,-0.000302683,0,0
2.31248,-0.371101,-0.57491,0.124658,-0.059885,0.0885913,-21.26252107,-32.9399166,7.142377283,-3.431157756,5.075907592,-0.371101,-0.57491,0.105773,0.0967127,0.105616,0,0,-0.000724766,0.0042015,-0.000109849,0,0,-0.000302683,0,0
2.31348,-0.371101,-0.57491,0.124658,-0.059885,0.0885913,-21.26252107,-32.9399166,7.142377283,-3.431157756,5.075907592,-0.371101,-0.57491,0.105773,0.0967127,0.105616,0,0,-0.000724766,0.0042015,-0.000109849,0,0,-0.000302683,0,0
2.31449,-0.371101,-0.57491,0.124658,-0.059885,0.0885913,-21.26252107,-32.9399166,7.142377283,-3.431157756,5.075907592,-0.371101,-0.57491,0.105773,0.0967127,0.105616,0,0,-0.000724766,0.0042015,-0.000109849,0,0,-0.000302683,0,0
2.31548,-0.371101,-0.57491,0.124658,-0.059885,0.0885913,-21.26252107,-32.9399166,7.142377283,-3.431157756,5.075907592,-0.371101,-0.57491,0.105773,0.0967127,0.105616,0,0,-0.000724766,0.0042015,-0.000109849,0,0,-0.000302683,0,0
2.31649,-0.371101,-0.57491,0.124658,-0.059885,0.0885913,-21.26252107,-32.9399166,7.142377283,-3.431157756,5.075907592,-0.371101,-0.57491,0.105773,0.0967127,0.105616,0,0,-0.000724766,0.0042015,-0.000109849,0,0,-0.000302683,0,0
2.31749,-0.371101,-0.57491,0.124658,-0.059885,0.0885913,-21.26252107,-32.9399166,7.142377283,-3.431157756,5.075907592,-0.371101,-0.57491,0.105773,0.0967127,0.105616,0,0,-0.000724766,0.0042015,-0.000109849,0,0,-0.000302683,0,0
2.31921,-0.371101,-0.57491,0.124658,-0.059885,0.0885913,-21.26252107,-32.9399166,7.142377283,-3.431157756,5.075907592,-0.371101,-0.57491,0.105773,0.0967127,0.105616,0,0,-0.000724766,0.0042015,-0.000109849,0,0,-0.000302683,0,0
2.31989,-0.371101,-0.57491,0.124658,-0.059885,0.0885913,-21.26252107,-32.9399166,7.142377283,-3.431157756,5.075907592,-0.371101,-0.57491,0.105773,0.0967127,0.105616,0,0,-0.000724766,0.0042015,-0.000109849,0,0,-0.000302683,0,0
2.3209,-0.371101,-0.57491,0.124658,-0.059885,0.0885913,-21.26252107,-32.9399166,7.142377283,-3.431157756,5.075907592,-0.371101,-0.57491,0.105773,0.0967127,0.105616,0,0,-0.000724766,0.0042015,-0.000109849,0,0,-0.000302683,0,0
2.3219,-0.371101,-0.57491,0.124658,-0.059885,0.0885913,-21.26252107,-32.9399166,7.142377283,-3.431157756,5.075907592,-0.371101,-0.57491,0.105773,0.0967127,0.105616,0,0,-0.000724766,0.0042015,-0.000109849,0,0,-0.000302683,0,0
2.32291,-0.371101,-0.57491,0.124658,-0.059885,0.0885913,-21.26252107,-32.9399166,7.142377283,-3.431157756,5.075907592,-0.371101,-0.57491,0.105773,0.0967127,0.105616,0,0,-0.000724766,0.0042015,-0.000109849,0,0,-0.000302683,0,0
2.3239,-0.371101,-0.57491,0.124658,-0.059885,0.0885913,-21.26252107,-32.9399166,7.142377283,-3.431157756,5.075907592,-0.371101,-0.57491,0.105773,0.0967127,0.105616,0,0,-0.000724766,0.0042015,-0.000109849,0,0,-0.000302683,0,0
2.32491,-0.371101,-0.57491,0.124658,-0.059885,0.0885913,-21.26252107,-32.9399166,7.142377283,-3.431157756,5.075907592,-0.371101,-0.57491,0.105773,0.0967127,0.105616,0,0,-0.000724766,0.0042015,-0.000109849,0,0,-0.000302683,0,0
2.3259,-0.371101,-0.57491,0.124658,-0.059885,0.0885913,-21.26252107,-32.9399166,7.142377283,-3.431157756,5.075907592,-0.371101,-0.57491,0.105773,0.0967127,0.105616,0,0,-0.000724766,0.0042015,-0.000109849,0,0,-0.000302683,0,0
2.32692,-0.371101,-0.57491,0.124658,-0.059885,0.0885913,-21.26252107,-32.9399166,7.142377283,-3.431157756,5.075907592,-0.371101,-0.57491,0.105773,0.0967127,0.105616,0,0,-0.000724766,0.0042015,-0.000109849,0,0,-0.000302683,0,0
2.32859,-0.371101,-0.57491,0.124658,-0.059885,0.0885913,-21.26252107,-32.9399166,7.142377283,-3.431157756,5.075907592,-0.371101,-0.57491,0.105773,0.0967127,0.105616,0,0,-0.000724766,0.0042015,-0.000109849,0,0,-0.000302683,0,0
2.32959,-0.371101,-0.57491,0.124658,-0.059885,0.0885913,-21.26252107,-32.9399166,7.142377283,-3.431157756,5.075907592,-0.371101,-0.57491,0.105773,0.0967127,0.105616,0,0,-0.000724766,0.0042015,-0.000109849,0,0,-0.000302683,0,0
2.33088,-0.371101,-0.57491,0.124658,-0.059885,0.0885913,-21.26252107,-32.9399166,7.142377283,-3.431157756,5.075907592,-0.371101,-0.57491,0.105773,0.0967127,0.105616,0,0,-0.000724766,0.0042015,-0.000109849,0,0,-0.000302683,0,0
2.33187,-0.371101,-0.57491,0.124658,-0.059885,0.0885913,-21.26252107,-32.9399166,7.142377283,-3.431157756,5.075907592,-0.371101,-0.57491,0.105773,0.0967127,0.105616,0,0,-0.000724766,0.0042015,-0.000109849,0,0,-0.000302683,0,0
2.33287,-0.371101,-0.57491,0.124658,-0.059885,0.0885913,-21.26252107,-32.9399166,7.142377283,-3.431157756,5.075907592,-0.371101,-0.57491,0.105773,0.0967127,0.105616,0,0,-0.000724766,0.0042015,-0.000109849,0,0,-0.000302683,0,0
2.33387,-0.371101,-0.57491,0.124658,-0.059885,0.0885913,-21.26252107,-32.9399166,7.142377283,-3.431157756,5.075907592,-0.371101,-0.57491,0.105773,0.0967127,0.105616,0,0,-0.000724766,0.0042015,-0.000109849,0,0,-0.000302683,0,0
2.33488,-0.371101,-0.57491,0.124658,-0.059885,0.0885913,-21.26252107,-32.9399166,7.142377283,-3.431157756,5.075907592,-0.371101,-0.57491,0.105773,0.0967127,0.105616,0,0,-0.000724766,0.0042015,-0.000109849,0,0,-0.000302683,0,0
2.33589,-0.371101,-0.57491,0.124658,-0.059885,0.0885913,-21.26252107,-32.9399166,7.142377283,-3.431157756,5.075907592,-0.371101,-0.57491,0.105773,0.0967127,0.105616,0,0,-0.000724766,0.0042015,-0.000109849,0,0,-0.000302683,0,0
2.33688,-0.371101,-0.57491,0.124658,-0.059885,0.0885913,-21.26252107,-32.9399166,7.142377283,-3.431157756,5.075907592,-0.371101,-0.57491,0.105773,0.0967127,0.105616,0,0,-0.000724766,0.0042015,-0.000109849,0,0,-0.000302683,0,0
2.3379,-0.371101,-0.57491,0.124658,-0.059885,0.0885913,-21.26252107,-32.9399166,7.142377283,-3.431157756,5.075907592,-0.371101,-0.57491,0.105773,0.0967127,0.105616,0,0,-0.000724766,0.0042015,-0.000109849,0,0,-0.000302683,0,0
2.3389,-0.371101,-0.57491,0.124658,-0.059885,0.0885913,-21.26252107,-32.9399166,7.142377283,-3.431157756,5.075907592,-0.371101,-0.57491,0.105773,0.0967127,0.105616,0,0,-0.000724766,0.0042015,-0.000109849,0,0,-0.000302683,0,0
2.33989,-0.371101,-0.57491,0.124658,-0.059885,0.0885913,-21.26252107,-32.9399166,7.142377283,-3.431157756,5.075907592,-0.371101,-0.57491,0.105773,0.0967127,0.105616,0,0,-0.000724766,0.0042015,-0.000109849,0,0,-0.000302683,0,0
2.34092,-0.371101,-0.57491,0.124658,-0.059885,0.0885913,-21.26252107,-32.9399166,7.142377283,-3.431157756,5.075907592,-0.371101,-0.57491,0.105773,0.0967127,0.105616,0,0,-0.000724766,0.0042015,-0.000109849,0,0,-0.000302683,0,0
2.34189,-0.371101,-0.57491,0.124658,-0.059885,0.0885913,-21.26252107,-32.9399166,7.142377283,-3.431157756,5.075907592,-0.371101,-0.57491,0.105773,0.0967127,0.105616,0,0,-0.000724766,0.0042015,-0.000109849,0,0,-0.000302683,0,0
2.34289,-0.371101,-0.57491,0.124658,-0.059885,0.0885913,-21.26252107,-32.9399166,7.142377283,-3.431157756,5.075907592,-0.371101,-0.57491,0.105773,0.0967127,0.105616,0,0,-0.000724766,0.0042015,-0.000109849,0,0,-0.000302683,0,0
2.34389,-0.371101,-0.57491,0.124658,-0.059885,0.0885913,-21.26252107,-32.9399166,7.142377283,-3.431157756,5.075907592,-0.371101,-0.57491,0.105773,0.0967127,0.105616,0,0,-0.000724766,0.0042015,-0.000109849,0,0,-0.000302683,0,0
2.34489,-0.371101,-0.57491,0.124658,-0.059885,0.0885913,-21.26252107,-32.9399166,7.142377283,-3.431157756,5.075907592,-0.371101,-0.57491,0.105773,0.0967127,0.105616,0,0,-0.000724766,0.0042015,-0.000109849,0,0,-0.000302683,0,0
2.34589,-0.371101,-0.57491,0.124658,-0.059885,0.0885913,-21.26252107,-32.9399166,7.142377283,-3.431157756,5.075907592,-0.371101,-0.57491,0.105773,0.0967127,0.105616,0,0,-0.000724766,0.0042015,-0.000109849,0,0,-0.000302683,0,0
2.34689,-0.371101,-0.57491,0.124658,-0.059885,0.0885913,-21.26252107,-32.9399166,7.142377283,-3.431157756,5.075907592,-0.371101,-0.57491,0.105773,0.0967127,0.105616,0,0,-0.000724766,0.0042015,-0.000109849,0,0,-0.000302683,0,0
2.34789,-0.371101,-0.57491,0.124658,-0.059885,0.0885913,-21.26252107,-32.9399166,7.142377283,-3.431157756,5.075907592,-0.371101,-0.57491,0.105773,0.0967127,0.105616,0,0,-0.000724766,0.0042015,-0.000109849,0,0,-0.000302683,0,0
2.34889,-0.371101,-0.57491,0.124658,-0.059885,0.0885913,-21.26252107,-32.9399166,7.142377283,-3.431157756,5.075907592,-0.371101,-0.57491,0.105773,0.0967127,0.105616,0,0,-0.000724766,0.0042015,-0.000109849,0,0,-0.000302683,0,0
2.34989,-0.371101,-0.57491,0.124658,-0.059885,0.0885913,-21.26252107,-32.9399166,7.142377283,-3.431157756,5.075907592,-0.371101,-0.57491,0.105773,0.0967127,0.105616,0,0,-0.000721119,0.00418036,-0.000109297,0,0,-0.00030116,0,0
2.35089,-0.371101,-0.57491,0.124658,-0.059885,0.0885913,-21.26252107,-32.9399166,7.142377283,-3.431157756,5.075907592,-0.371101,-0.57491,0.105773,0.0967127,0.105616,0,0,-0.000709203,0.00411128,-0.000107491,0,0,-0.000296184,0,0
2.35189,-0.371101,-0.57491,0.124658,-0.059885,0.0885913,-21.26252107,-32.9399166,7.142377283,-3.431157756,5.075907592,-0.371101,-0.57491,0.105773,0.0967127,0.105616,0,0,-0.000699096,0.00405269,-0.000105959,0,0,-0.000291963,0,0
2.35289,-0.371101,-0.57491,0.124658,-0.059885,0.0885913,-21.26252107,-32.9399166,7.142377283,-3.431157756,5.075907592,-0.371101,-0.57491,0.105773,0.0967127,0.105616,0,0,-0.000685146,0.00397182,-0.000103844,0,0,-0.000286137,0,0
2.3539,-0.371101,-0.57491,0.124658,-0.059885,0.0885913,-21.26252107,-32.9399166,7.142377283,-3.431157756,5.075907592,-0.371101,-0.57491,0.105773,0.0967127,0.105616,0,0,-0.00067704,0.00392483,-0.000102616,0,0,-0.000282751,0,0
2.3549,-0.371101,-0.57491,0.124658,-0.059885,0.0885913,-21.26252107,-32.9399166,7.142377283,-3.431157756,5.075907592,-0.371101,-0.57491,0.105773,0.0967127,0.105616,0,0,-0.000666525,0.00386388,-0.000101022,0,0,-0.00027836,0,0
2.3559,-0.371101,-0.57491,0.124658,-0.059885,0.0885913,-21.26252107,-32.9399166,7.142377283,-3.431157756,5.075907592,-0.371101,-0.57491,0.105773,0.0967127,0.105616,0,0,-0.000655081,0.00379754,-9.93E-05,0,0,-0.000273581,0,0
2.3569,-0.371101,-0.57491,0.124658,-0.059885,0.0885913,-21.26252107,-32.9399166,7.142377283,-3.431157756,5.075907592,-0.371101,-0.57491,0.105773,0.0967127,0.105616,0,0,-0.000645233,0.00374045,-9.78E-05,0,0,-0.000269468,0,0
2.3579,-0.371101,-0.57491,0.124658,-0.059885,0.0885913,-21.26252107,-32.9399166,7.142377283,-3.431157756,5.075907592,-0.371101,-0.57491,0.105773,0.0967127,0.105616,0,0,-0.000635677,0.00368505,-9.63E-05,0,0,-0.000265477,0,0
2.3589,-0.371101,-0.57491,0.124658,-0.059885,0.0885913,-21.26252107,-32.9399166,7.142377283,-3.431157756,5.075907592,-0.371101,-0.57491,0.105773,0.0967127,0.105616,0,0,-0.000626399,0.00363126,-9.49E-05,0,0,-0.000261602,0,0
2.3599,-0.371101,-0.57491,0.124658,-0.059885,0.0885913,-21.26252107,-32.9399166,7.142377283,-3.431157756,5.075907592,-0.371101,-0.57491,0.105773,0.0967127,0.105616,0,0,-0.000617388,0.00357903,-9.36E-05,0,0,-0.000257839,0,0
2.36091,-0.371101,-0.57491,0.124658,-0.059885,0.0885913,-21.26252107,-32.9399166,7.142377283,-3.431157756,5.075907592,-0.371101,-0.57491,0.105773,0.0967127,0.105616,0,0,-0.000608633,0.00352828,-9.22E-05,0,0,-0.000254183,0,0
2.36191,-0.371101,-0.57491,0.124658,-0.059885,0.0885913,-21.26252107,-32.9399166,7.142377283,-3.431157756,5.075907592,-0.371101,-0.57491,0.105773,0.0967127,0.105616,0,0,-0.000600123,0.00347894,-9.10E-05,0,0,-0.000250629,0,0
2.36291,-0.371101,-0.57491,0.124658,-0.059885,0.0885913,-21.26252107,-32.9399166,7.142377283,-3.431157756,5.075907592,-0.371101,-0.57491,0.105773,0.0967127,0.105616,0,0,-0.000591848,0.00343097,-8.97E-05,0,0,-0.000247173,0,0
2.36391,-0.371101,-0.57491,0.124658,-0.059885,0.0885913,-21.26252107,-32.9399166,7.142377283,-3.431157756,5.075907592,-0.371101,-0.57491,0.105773,0.0967127,0.105616,0,0,-0.000583798,0.0033843,-8.85E-05,0,0,-0.000243811,0,0
2.36492,-0.371101,-0.57491,0.124658,-0.059885,0.0885913,-21.26252107,-32.9399166,7.142377283,-3.431157756,5.075907592,-0.371101,-0.57491,0.105773,0.0967127,0.105616,0,0,-0.000575964,0.00333889,-8.73E-05,0,0,-0.000240539,0,0
2.36591,-0.371101,-0.57491,0.124658,-0.059885,0.0885913,-21.26252107,-32.9399166,7.142377283,-3.431157756,5.075907592,-0.371101,-0.57491,0.105773,0.0967127,0.105616,0,0,-0.000568337,0.00329467,-8.61E-05,0,0,-0.000237354,0,0
2.36691,-0.371101,-0.57491,0.124658,-0.059885,0.0885913,-21.26252107,-32.9399166,7.142377283,-3.431157756,5.075907592,-0.371101,-0.57491,0.105773,0.0967127,0.105616,0,0,-0.000560909,0.00325162,-8.50E-05,0,0,-0.000234252,0,0
2.36791,-0.371101,-0.57491,0.124658,-0.059885,0.0885913,-21.26252107,-32.9399166,7.142377283,-3.431157756,5.075907592,-0.371101,-0.57491,0.105773,0.0967127,0.105616,0,0,-0.000553673,0.00320967,-8.39E-05,0,0,-0.00023123,0,0
2.36891,-0.371101,-0.57491,0.124658,-0.059885,0.0885913,-21.26252107,-32.9399166,7.142377283,-3.431157756,5.075907592,-0.371101,-0.57491,0.105773,0.0967127,0.105616,0,0,-0.000546622,0.00316879,-8.28E-05,0,0,-0.000228285,0,0
2.36992,-0.371101,-0.57491,0.124658,-0.059885,0.0885913,-21.26252107,-32.9399166,7.142377283,-3.431157756,5.075907592,-0.371101,-0.57491,0.105773,0.0967127,0.105616,0,0,-0.000539748,0.00312894,-8.18E-05,0,0,-0.000225414,0,0
2.37092,-0.371101,-0.57491,0.124658,-0.059885,0.0885913,-21.26252107,-32.9399166,7.142377283,-3.431157756,5.075907592,-0.371101,-0.57491,0.105773,0.0967127,0.105616,0,0,-0.000532218,0.00308529,-8.07E-05,0,0,-0.00022227,0,0
2.37192,-0.371101,-0.57491,0.124658,-0.059885,0.0885913,-21.26252107,-32.9399166,7.142377283,-3.431157756,5.075907592,-0.371101,-0.57491,0.105773,0.0967127,0.105616,0,0,-0.000526505,0.00305217,-7.98E-05,0,0,-0.000219884,0,0
2.37292,-0.371101,-0.57491,0.124658,-0.059885,0.0885913,-21.26252107,-32.9399166,7.142377283,-3.431157756,5.075907592,-0.371101,-0.57491,0.105773,0.0967127,0.105616,0,0,-0.000520125,0.00301519,-7.88E-05,0,0,-0.000217219,0,0
2.37392,-0.371101,-0.57491,0.124658,-0.059885,0.0885913,-21.26252107,-32.9399166,7.142377283,-3.431157756,5.075907592,-0.371101,-0.57491,0.105773,0.0967127,0.105616,0,0,-0.000513898,0.00297909,-7.79E-05,0,0,-0.000214618,0,0
2.37492,-0.371101,-0.57491,0.124658,-0.059885,0.0885913,-21.26252107,-32.9399166,7.142377283,-3.431157756,5.075907592,-0.371101,-0.57491,0.105773,0.0967127,0.105616,0,0,0,0,0,0,0,0,0,0
2.37592,-0.371101,-0.57491,0.124658,-0.059885,0.0885913,-21.26252107,-32.9399166,7.142377283,-3.431157756,5.075907592,-0.371101,-0.57491,0.105773,0.0967127,0.105616,0,0,0,0,0,0,0,0,0,0
2.37692,-0.371101,-0.57491,0.124658,-0.059885,0.0885913,-21.26252107,-32.9399166,7.142377283,-3.431157756,5.075907592,-0.371101,-0.57491,0.105773,0.0967127,0.105616,0,0,0,0,0,0,0,0,0,0
2.37792,-0.371101,-0.57491,0.124658,-0.059885,0.0885913,-21.26252107,-32.9399166,7.142377283,-3.431157756,5.075907592,-0.371101,-0.57491,0.105773,0.0967127,0.105616,0,0,0,0,0,0,0,0,0,0
2.37893,-0.371101,-0.57491,0.124658,-0.059885,0.0885913,-21.26252107,-32.9399166,7.142377283,-3.431157756,5.075907592,-0.371101,-0.57491,0.105773,0.0967127,0.105616,0,0,0,0,0,0,0,0,0,0
2.37993,-0.371101,-0.57491,0.124658,-0.059885,0.0885913,-21.26252107,-32.9399166,7.142377283,-3.431157756,5.075907592,-0.371101,-0.57491,0.105773,0.0967127,0.105616,0,0,0,0,0,0,0,0,0,0
2.38093,-0.371101,-0.57491,0.124658,-0.059885,0.0885913,-21.26252107,-32.9399166,7.142377283,-3.431157756,5.075907592,-0.371101,-0.57491,0.105773,0.0967127,0.105616,0,0,0,0,0,0,0,0,0,0
2.38193,-0.371101,-0.57491,0.124658,-0.059885,0.0885913,-21.26252107,-32.9399166,7.142377283,-3.431157756,5.075907592,-0.371101,-0.57491,0.105773,0.0967127,0.105616,0,0,0,0,0,0,0,0,0,0
2.38293,-0.371101,-0.57491,0.124658,-0.059885,0.0885913,-21.26252107,-32.9399166,7.142377283,-3.431157756,5.075907592,-0.371101,-0.57491,0.105773,0.0967127,0.105616,0,0,0,0,0,0,0,0,0,0
2.38393,-0.371101,-0.57491,0.124658,-0.059885,0.0885913,-21.26252107,-32.9399166,7.142377283,-3.431157756,5.075907592,-0.371101,-0.57491,0.105773,0.0967127,0.105616,0,0,0,0,0,0,0,0,0,0
2.38493,-0.371101,-0.57491,0.124658,-0.059885,0.0885913,-21.26252107,-32.9399166,7.142377283,-3.431157756,5.075907592,-0.371101,-0.57491,0.105773,0.0967127,0.105616,0,0,0,0,0,0,0,0,0,0
2.38593,-0.371101,-0.57491,0.124658,-0.059885,0.0885913,-21.26252107,-32.9399166,7.142377283,-3.431157756,5.075907592,-0.371101,-0.57491,0.105773,0.0967127,0.105616,0,0,0,0,0,0,0,0,0,0
2.38693,-0.371101,-0.57491,0.124658,-0.059885,0.0885913,-21.26252107,-32.9399166,7.142377283,-3.431157756,5.075907592,-0.371101,-0.57491,0.105773,0.0967127,0.105616,0,0,0,0,0,0,0,0,0,0
2.38794,-0.371101,-0.57491,0.124658,-0.059885,0.0885913,-21.26252107,-32.9399166,7.142377283,-3.431157756,5.075907592,-0.371101,-0.57491,0.105773,0.0967127,0.105616,0,0,0,0,0,0,0,0,0,0
2.38894,-0.371101,-0.57491,0.124658,-0.059885,0.0885913,-21.26252107,-32.9399166,7.142377283,-3.431157756,5.075907592,-0.371101,-0.57491,0.105773,0.0967127,0.105616,0,0,0,0,0,0,0,0,0,0
2.38994,-0.371101,-0.57491,0.124658,-0.059885,0.0885913,-21.26252107,-32.9399166,7.142377283,-3.431157756,5.075907592,-0.371101,-0.57491,0.105773,0.0967127,0.105616,0,0,0,0,0,0,0,0,0,0
2.39094,-0.371101,-0.57491,0.124658,-0.059885,0.0885913,-21.26252107,-32.9399166,7.142377283,-3.431157756,5.075907592,-0.371101,-0.57491,0.105773,0.0967127,0.105616,0,0,0,0,0,0,0,0,0,0
2.39194,-0.371101,-0.57491,0.124658,-0.059885,0.0885913,-21.26252107,-32.9399166,7.142377283,-3.431157756,5.075907592,-0.371101,-0.57491,0.105773,0.0967127,0.105616,0,0,0,0,0,0,0,0,0,0
2.39294,-0.371101,-0.57491,0.124658,-0.059885,0.0885913,-21.26252107,-32.9399166,7.142377283,-3.431157756,5.075907592,-0.371101,-0.57491,0.105773,0.0967127,0.105616,0,0,0,0,0,0,0,0,0,0
2.39394,-0.371101,-0.57491,0.124658,-0.059885,0.0885913,-21.26252107,-32.9399166,7.142377283,-3.431157756,5.075907592,-0.371101,-0.57491,0.105773,0.0967127,0.105616,0,0,0,0,0,0,0,0,0,0
2.39495,-0.371101,-0.57491,0.124658,-0.059885,0.0885913,-21.26252107,-32.9399166,7.142377283,-3.431157756,5.075907592,-0.371101,-0.57491,0.105773,0.0967127,0.105616,0,0,0,0,0,0,0,0,0,0
2.39595,-0.371101,-0.57491,0.124658,-0.059885,0.0885913,-21.26252107,-32.9399166,7.142377283,-3.431157756,5.075907592,-0.371101,-0.57491,0.105773,0.0967127,0.105616,0,0,0,0,0,0,0,0,0,0
2.39697,-0.371101,-0.57491,0.124647,-0.0598228,0.0885896,-21.26252107,-32.9399166,7.141747029,-3.427593959,5.075810189,-0.371101,-0.57491,0.105768,0.0967127,0.105616,0,0,0,0,0,0,0,0,0,0
2.39795,-0.371101,-0.57491,0.124647,-0.0598228,0.0885896,-21.26252107,-32.9399166,7.141747029,-3.427593959,5.075810189,-0.371101,-0.57491,0.105768,0.0967127,0.105616,0,0,0,0,0,0,0,0,0,0
2.39896,-0.371101,-0.57491,0.124647,-0.0598228,0.0885896,-21.26252107,-32.9399166,7.141747029,-3.427593959,5.075810189,-0.371101,-0.57491,0.105768,0.0967127,0.105616,0,0,0,0,0,0,0,0,0,0
2.39996,-0.371101,-0.57491,0.124647,-0.0598228,0.0885896,-21.26252107,-32.9399166,7.141747029,-3.427593959,5.075810189,-0.371101,-0.57491,0.105768,0.0967127,0.105616,0,0,0,0,0,0,0,0,0,0
2.40098,-0.371101,-0.57491,0.124647,-0.0598228,0.0885896,-21.26252107,-32.9399166,7.141747029,-3.427593959,5.075810189,-0.371101,-0.57491,0.105768,0.0967127,0.105616,0,0,0,0,0,0,0,0,0,0
2.40196,-0.371101,-0.57491,0.124647,-0.0598228,0.0885896,-21.26252107,-32.9399166,7.141747029,-3.427593959,5.075810189,-0.371101,-0.57491,0.105768,0.0967127,0.105616,0,0,0,0,0,0,0,0,0,0
2.40299,-0.371101,-0.57491,0.124647,-0.0598228,0.0885896,-21.26252107,-32.9399166,7.141747029,-3.427593959,5.075810189,-0.371101,-0.57491,0.105768,0.0967127,0.105616,0,0,0,0,0,0,0,0,0,0
2.40396,-0.371101,-0.57491,0.124647,-0.0598228,0.0885896,-21.26252107,-32.9399166,7.141747029,-3.427593959,5.075810189,-0.371101,-0.57491,0.105768,0.0967127,0.105616,0,0,0,0,0,0,0,0,0,0
2.40496,-0.371101,-0.57491,0.124647,-0.0598228,0.0885896,-21.26252107,-32.9399166,7.141747029,-3.427593959,5.075810189,-0.371101,-0.57491,0.105768,0.0967127,0.105616,0,0,0,0,0,0,0,0,0,0
2.40598,-0.371101,-0.57491,0.124647,-0.0598228,0.0885896,-21.26252107,-32.9399166,7.141747029,-3.427593959,5.075810189,-0.371101,-0.57491,0.105768,0.0967127,0.105616,0,0,0,0,0,0,0,0,0,0
2.40696,-0.371101,-0.57491,0.124647,-0.0598228,0.0885896,-21.26252107,-32.9399166,7.141747029,-3.427593959,5.075810189,-0.371101,-0.57491,0.105768,0.0967127,0.105616,0,0,0,0,0,0,0,0,0,0
2.40796,-0.371101,-0.57491,0.124647,-0.0598228,0.0885896,-21.26252107,-32.9399166,7.141747029,-3.427593959,5.075810189,-0.371101,-0.57491,0.105768,0.0967127,0.105616,0,0,0,0,0,0,0,0,0,0
2.409,-0.371101,-0.57491,0.124647,-0.0598228,0.0885896,-21.26252107,-32.9399166,7.141747029,-3.427593959,5.075810189,-0.371101,-0.57491,0.105768,0.0967127,0.105616,0,0,0,0,0,0,0,0,0,0
2.40998,-0.371101,-0.57491,0.124647,-0.0598228,0.0885896,-21.26252107,-32.9399166,7.141747029,-3.427593959,5.075810189,-0.371101,-0.57491,0.105768,0.0967127,0.105616,0,0,0,0,0,0,0,0,0,0
2.41097,-0.371101,-0.57491,0.124636,-0.0597606,0.088588,-21.26252107,-32.9399166,7.141116775,-3.424030161,5.075718516,-0.371101,-0.57491,0.105764,0.0967127,0.105616,0,0,0,0,0,0,0,0,0,0
2.41197,-0.371101,-0.57491,0.124636,-0.0597606,0.088588,-21.26252107,-32.9399166,7.141116775,-3.424030161,5.075718516,-0.371101,-0.57491,0.105764,0.0967127,0.105616,0,0,0,0,0,0,0,0,0,0
2.41297,-0.371101,-0.57491,0.124636,-0.0597606,0.088588,-21.26252107,-32.9399166,7.141116775,-3.424030161,5.075718516,-0.371101,-0.57491,0.105764,0.0967127,0.105616,0,0,0,0,0,0,0,0,0,0
2.41397,-0.371101,-0.57491,0.124636,-0.0597606,0.088588,-21.26252107,-32.9399166,7.141116775,-3.424030161,5.075718516,-0.371101,-0.57491,0.105764,0.0967127,0.105616,0,0,0,0,0,0,0,0,0,0
2.41498,-0.371101,-0.57491,0.124636,-0.0597606,0.088588,-21.26252107,-32.9399166,7.141116775,-3.424030161,5.075718516,-0.371101,-0.57491,0.105764,0.0967127,0.105616,0,0,0,0,0,0,0,0,0,0
2.41597,-0.371101,-0.57491,0.124636,-0.0597606,0.088588,-21.26252107,-32.9399166,7.141116775,-3.424030161,5.075718516,-0.371101,-0.57491,0.105764,0.0967127,0.105616,0,0,0,0,0,0,0,0,0,0
2.41697,-0.371101,-0.57491,0.124636,-0.0597606,0.088588,-21.26252107,-32.9399166,7.141116775,-3.424030161,5.075718516,-0.371101,-0.57491,0.105764,0.0967127,0.105616,0,0,0,0,0,0,0,0,0,0
2.41799,-0.371101,-0.57491,0.124636,-0.0597606,0.088588,-21.26252107,-32.9399166,7.141116775,-3.424030161,5.075718516,-0.371101,-0.57491,0.105764,0.0967127,0.105616,0,0,0,0,0,0,0,0,0,0
2.41897,-0.371101,-0.57491,0.124636,-0.0597606,0.088588,-21.26252107,-32.9399166,7.141116775,-3.424030161,5.075718516,-0.371101,-0.57491,0.105764,0.0967127,0.105616,0,0,0,0,0,0,0,0,0,0
2.41997,-0.371101,-0.57491,0.124636,-0.0597606,0.088588,-21.26252107,-32.9399166,7.141116775,-3.424030161,5.075718516,-0.371101,-0.57491,0.105764,0.0967127,0.105616,0,0,0,0,0,0,0,0,0,0
2.42098,-0.371101,-0.57491,0.124636,-0.0597606,0.088588,-21.26252107,-32.9399166,7.141116775,-3.424030161,5.075718516,-0.371101,-0.57491,0.105764,0.0967127,0.105616,0,0,0,0,0,0,0,0,0,0
2.42199,-0.371101,-0.57491,0.124636,-0.0597606,0.088588,-21.26252107,-32.9399166,7.141116775,-3.424030161,5.075718516,-0.371101,-0.57491,0.105764,0.0967127,0.105616,0,0,0,0,0,0,0,0,0,0
2.42298,-0.371101,-0.57491,0.124636,-0.0597606,0.088588,-21.26252107,-32.9399166,7.141116775,-3.424030161,5.075718516,-0.371101,-0.57491,0.105764,0.0967127,0.105616,0,0,0,0,0,0,0,0,0,0
2.42398,-0.371101,-0.57491,0.124636,-0.0597606,0.088588,-21.26252107,-32.9399166,7.141116775,-3.424030161,5.075718516,-0.371101,-0.57491,0.105764,0.0967127,0.105616,0,0,0,0,0,0,0,0,0,0
2.42499,-0.371101,-0.57491,0.124636,-0.0597606,0.088588,-21.26252107,-32.9399166,7.141116775,-3.424030161,5.075718516,-0.371101,-0.57491,0.105764,0.0967127,0.105616,0,0,0,0,0,0,0,0,0,0
2.426,-0.371101,-0.57491,0.124636,-0.0597606,0.088588,-21.26252107,-32.9399166,7.141116775,-3.424030161,5.075718516,-0.371101,-0.57491,0.105764,0.0967127,0.105616,0,0,0,0,0,0,0,0,0,0
2.42699,-0.371101,-0.57491,0.124636,-0.0597606,0.088588,-21.26252107,-32.9399166,7.141116775,-3.424030161,5.075718516,-0.371101,-0.57491,0.105764,0.0967127,0.105616,0,0,0,0,0,0,0,0,0,0
2.42799,-0.371101,-0.57491,0.124636,-0.0597606,0.088588,-21.26252107,-32.9399166,7.141116775,-3.424030161,5.075718516,-0.371101,-0.57491,0.105764,0.0967127,0.105616,0,0,0,0,0,0,0,0,0,0
2.42898,-0.371101,-0.57491,0.124636,-0.0597606,0.088588,-21.26252107,-32.9399166,7.141116775,-3.424030161,5.075718516,-0.371101,-0.57491,0.105764,0.0967127,0.105616,0,0,0,0,0,0,0,0,0,0
2.42998,-0.371101,-0.57491,0.124636,-0.0597606,0.088588,-21.26252107,-32.9399166,7.141116775,-3.424030161,5.075718516,-0.371101,-0.57491,0.105764,0.0967127,0.105616,0,0,0,0,0,0,0,0,0,0
2.43099,-0.371101,-0.57491,0.124636,-0.0597606,0.088588,-21.26252107,-32.9399166,7.141116775,-3.424030161,5.075718516,-0.371101,-0.57491,0.105764,0.0967127,0.105616,0,0,0,0,0,0,0,0,0,0
2.432,-0.371101,-0.57491,0.124636,-0.0597606,0.088588,-21.26252107,-32.9399166,7.141116775,-3.424030161,5.075718516,-0.371101,-0.57491,0.105764,0.0967127,0.105616,0,0,0,0,0,0,0,0,0,0
2.433,-0.371101,-0.57491,0.124636,-0.0597606,0.088588,-21.26252107,-32.9399166,7.141116775,-3.424030161,5.075718516,-0.371101,-0.57491,0.105764,0.0967127,0.105616,0,0,0,0,0,0,0,0,0,0
2.434,-0.371101,-0.57491,0.124636,-0.0597606,0.088588,-21.26252107,-32.9399166,7.141116775,-3.424030161,5.075718516,-0.371101,-0.57491,0.105764,0.0967127,0.105616,0,0,0,0,0,0,0,0,0,0
2.435,-0.371101,-0.57491,0.124636,-0.0597606,0.088588,-21.26252107,-32.9399166,7.141116775,-3.424030161,5.075718516,-0.371101,-0.57491,0.105764,0.0967127,0.105616,0,0,0,0,0,0,0,0,0,0
2.436,-0.371101,-0.57491,0.124636,-0.0597606,0.088588,-21.26252107,-32.9399166,7.141116775,-3.424030161,5.075718516,-0.371101,-0.57491,0.105764,0.0967127,0.105616,0,0,0,0,0,0,0,0,0,0
2.437,-0.371101,-0.57491,0.124625,-0.0596984,0.0885864,-21.26252107,-32.9399166,7.140486522,-3.420466364,5.075626842,-0.371101,-0.57491,0.105759,0.0967127,0.105616,0,0,0,0,0,0,0,0,0,0
2.43799,-0.371101,-0.57491,0.124625,-0.0596984,0.0885864,-21.26252107,-32.9399166,7.140486522,-3.420466364,5.075626842,-0.371101,-0.57491,0.105759,0.0967127,0.105616,0,0,0,0,0,0,0,0,0,0
2.439,-0.371101,-0.57491,0.124625,-0.0596984,0.0885864,-21.26252107,-32.9399166,7.140486522,-3.420466364,5.075626842,-0.371101,-0.57491,0.105759,0.0967127,0.105616,0,0,0,0,0,0,0,0,0,0
2.44,-0.371101,-0.57491,0.124625,-0.0596984,0.0885864,-21.26252107,-32.9399166,7.140486522,-3.420466364,5.075626842,-0.371101,-0.57491,0.105759,0.0967127,0.105616,0,0,0,0,0,0,0,0,0,0
2.441,-0.371101,-0.57491,0.124625,-0.0596984,0.0885864,-21.26252107,-32.9399166,7.140486522,-3.420466364,5.075626842,-0.371101,-0.57491,0.105759,0.0967127,0.105616,0,0,0,0,0,0,0,0,0,0
2.442,-0.371101,-0.57491,0.124625,-0.0596984,0.0885864,-21.26252107,-32.9399166,7.140486522,-3.420466364,5.075626842,-0.371101,-0.57491,0.105759,0.0967127,0.105616,0,0,0,0,0,0,0,0,0,0
2.443,-0.371101,-0.57491,0.124615,-0.0596362,0.0885847,-21.26252107,-32.9399166,7.139913564,-3.416902566,5.075529439,-0.371101,-0.57491,0.105755,0.0967127,0.105616,0,0,0,0,0,0,0,0,0,0
2.444,-0.371101,-0.57491,0.124615,-0.0596362,0.0885847,-21.26252107,-32.9399166,7.139913564,-3.416902566,5.075529439,-0.371101,-0.57491,0.105755,0.0967127,0.105616,0,0,0,0,0,0,0,0,0,0
2.44502,-0.371101,-0.57491,0.124615,-0.0596362,0.0885847,-21.26252107,-32.9399166,7.139913564,-3.416902566,5.075529439,-0.371101,-0.57491,0.105755,0.0967127,0.105616,0,0,0,0,0,0,0,0,0,0
2.44601,-0.371101,-0.57491,0.124615,-0.0596362,0.0885847,-21.26252107,-32.9399166,7.139913564,-3.416902566,5.075529439,-0.371101,-0.57491,0.105755,0.0967127,0.105616,0,0,0,0,0,0,0,0,0,0
2.447,-0.371101,-0.57491,0.124615,-0.0596362,0.0885847,-21.26252107,-32.9399166,7.139913564,-3.416902566,5.075529439,-0.371101,-0.57491,0.105755,0.0967127,0.105616,0,0,0,0,0,0,0,0,0,0
2.44801,-0.371101,-0.57491,0.124604,-0.059574,0.0885831,-21.26252107,-32.9399166,7.13928331,-3.413338769,5.075437766,-0.371101,-0.57491,0.10575,0.0967127,0.105616,0,0,-0.000849417,0.0049263,-0.000128804,0,0,-0.000354829,0,0
2.449,-0.371101,-0.57491,0.124604,-0.059574,0.0885831,-21.26252107,-32.9399166,7.13928331,-3.413338769,5.075437766,-0.371101,-0.57491,0.10575,0.0967127,0.105616,0,0,-0.000849417,0.0049263,-0.000128804,0,0,-0.000354829,0,0
2.45002,-0.371101,-0.57491,0.124604,-0.059574,0.0885831,-21.26252107,-32.9399166,7.13928331,-3.413338769,5.075437766,-0.371101,-0.57491,0.10575,0.0967127,0.105616,0,0,-0.000849417,0.0049263,-0.000128804,0,0,-0.000354829,0,0
2.45101,-0.371101,-0.57491,0.124604,-0.059574,0.0885831,-21.26252107,-32.9399166,7.13928331,-3.413338769,5.075437766,-0.371101,-0.57491,0.10575,0.0967127,0.105616,0,0,-0.000849417,0.0049263,-0.000128804,0,0,-0.000354829,0,0
2.45202,-0.371101,-0.57491,0.124604,-0.059574,0.0885831,-21.26252107,-32.9399166,7.13928331,-3.413338769,5.075437766,-0.371101,-0.57491,0.10575,0.0967127,0.105616,0,0,-0.000849417,0.0049263,-0.000128804,0,0,-0.000354829,0,0
2.45301,-0.371101,-0.57491,0.124604,-0.059574,0.0885831,-21.26252107,-32.9399166,7.13928331,-3.413338769,5.075437766,-0.371101,-0.57491,0.10575,0.0967127,0.105616,0,0,-0.000849417,0.0049263,-0.000128804,0,0,-0.000354829,0,0
2.45401,-0.371101,-0.57491,0.124604,-0.059574,0.0885831,-21.26252107,-32.9399166,7.13928331,-3.413338769,5.075437766,-0.371101,-0.57491,0.10575,0.0967127,0.105616,0,0,-0.000849417,0.0049263,-0.000128804,0,0,-0.000354829,0,0
2.45502,-0.371101,-0.57491,0.124604,-0.059574,0.0885831,-21.26252107,-32.9399166,7.13928331,-3.413338769,5.075437766,-0.371101,-0.57491,0.10575,0.0967127,0.105616,0,0,-0.000849417,0.0049263,-0.000128804,0,0,-0.000354829,0,0
2.45601,-0.371101,-0.57491,0.124604,-0.059574,0.0885831,-21.26252107,-32.9399166,7.13928331,-3.413338769,5.075437766,-0.371101,-0.57491,0.10575,0.0967127,0.105616,0,0,-0.000849417,0.0049263,-0.000128804,0,0,-0.000354829,0,0
2.45702,-0.371101,-0.57491,0.124604,-0.059574,0.0885831,-21.26252107,-32.9399166,7.13928331,-3.413338769,5.075437766,-0.371101,-0.57491,0.10575,0.0967127,0.105616,0,0,-0.000849417,0.0049263,-0.000128804,0,0,-0.000354829,0,0
2.45802,-0.371101,-0.57491,0.124604,-0.059574,0.0885831,-21.26252107,-32.9399166,7.13928331,-3.413338769,5.075437766,-0.371101,-0.57491,0.10575,0.0967127,0.105616,0,0,-0.000849417,0.0049263,-0.000128804,0,0,-0.000354829,0,0
2.45901,-0.371101,-0.57491,0.124593,-0.0595117,0.0885815,-21.26252107,-32.9399166,7.138653057,-3.409769242,5.075346093,-0.371101,-0.57491,0.105746,0.0967127,0.105616,0,0,-0.00088078,0.00510865,-0.000133572,0,0,-0.000367949,0,0
2.46002,-0.371101,-0.57491,0.124593,-0.0595117,0.0885815,-21.26252107,-32.9399166,7.138653057,-3.409769242,5.075346093,-0.371101,-0.57491,0.105746,0.0967127,0.105616,0,0,-0.00088078,0.00510865,-0.000133572,0,0,-0.000367949,0,0
2.46102,-0.371101,-0.57491,0.124593,-0.0595117,0.0885815,-21.26252107,-32.9399166,7.138653057,-3.409769242,5.075346093,-0.371101,-0.57491,0.105746,0.0967127,0.105616,0,0,-0.00088078,0.00510865,-0.000133572,0,0,-0.000367949,0,0
2.46202,-0.371101,-0.57491,0.124593,-0.0595117,0.0885815,-21.26252107,-32.9399166,7.138653057,-3.409769242,5.075346093,-0.371101,-0.57491,0.105746,0.0967127,0.105616,0,0,-0.00088078,0.00510865,-0.000133572,0,0,-0.000367949,0,0
2.46302,-0.371101,-0.57491,0.124593,-0.0595117,0.0885815,-21.26252107,-32.9399166,7.138653057,-3.409769242,5.075346093,-0.371101,-0.57491,0.105746,0.0967127,0.105616,0,0,-0.00088078,0.00510865,-0.000133572,0,0,-0.000367949,0,0
2.46402,-0.371101,-0.57491,0.124593,-0.0595117,0.0885815,-21.26252107,-32.9399166,7.138653057,-3.409769242,5.075346093,-0.371101,-0.57491,0.105746,0.0967127,0.105616,0,0,-0.00088078,0.00510865,-0.000133572,0,0,-0.000367949,0,0
2.46502,-0.371101,-0.57491,0.124583,-0.0594495,0.0885799,-21.26252107,-32.9399166,7.138080099,-3.406205444,5.07525442,-0.371101,-0.57491,0.105741,0.0967127,0.105616,0,0,-0.00148935,0.00863922,-0.000225886,0,0,-0.000622213,0,0
2.46602,-0.371101,-0.57491,0.124583,-0.0594495,0.0885799,-21.26252107,-32.9399166,7.138080099,-3.406205444,5.07525442,-0.371101,-0.57491,0.105741,0.0967127,0.105616,0,0,-0.00148935,0.00863922,-0.000225886,0,0,-0.000622213,0,0
2.46704,-0.371101,-0.57491,0.124583,-0.0594495,0.0885799,-21.26252107,-32.9399166,7.138080099,-3.406205444,5.07525442,-0.371101,-0.57491,0.105741,0.0967127,0.105616,0,0,-0.00148935,0.00863922,-0.000225886,0,0,-0.000622213,0,0
2.46804,-0.371101,-0.57491,0.124583,-0.0594495,0.0885799,-21.26252107,-32.9399166,7.138080099,-3.406205444,5.07525442,-0.371101,-0.57491,0.105741,0.0967127,0.105616,0,0,-0.00148935,0.00863922,-0.000225886,0,0,-0.000622213,0,0
2.46903,-0.371101,-0.57491,0.124583,-0.0594495,0.0885799,-21.26252107,-32.9399166,7.138080099,-3.406205444,5.07525442,-0.371101,-0.57491,0.105741,0.0967127,0.105616,0,0,-0.00148935,0.00863922,-0.000225886,0,0,-0.000622213,0,0
2.47003,-0.371101,-0.57491,0.124583,-0.0594495,0.0885799,-21.26252107,-32.9399166,7.138080099,-3.406205444,5.07525442,-0.371101,-0.57491,0.105741,0.0967127,0.105616,0,0,-0.00148935,0.00863922,-0.000225886,0,0,-0.000622213,0,0
